!!!!SEGMENT: pl-wtm--r-1433_stefani-jozef--polonez-kochajmy-sie.krn
!!!cenid: 18xx:2453
!!!COM: Stefani, Józef
!!!COM-rismid: pe30024097
!!!CDT: 1800/04/16-1876/03/19
!!!CNT: Polish
!!!OTL: Polonez Kochajmy się
!!!PDT:
!!!AGN: Secular; Polonaise
!!!SMS-siglum: PL-Wtm
!!!SMS-shelfmark: R 1433
!!!SMS-shelfwork: W
!!!SMS-variant:
!!!SMS-altvar:
!!!NIFC-rismid: 1001116259
!!!URL-scan: http://repozytorium.nifc.pl/skany/pl-wtm-nut--r1433
!!!ONB-nifc:
!!!AIN: 1 clars 1 cor 1 empty 1 fagot 1 flt 1 oboe 2 timpa 1 tromp 1 tromt 1 viola 2 violn
!!!key:
**kern	**kern	**dynam	**kern	**dynam	**kern	**dynam	**kern	**dynam	**kern	**dynam	**kern	**dynam	**kern	**dynam	**kern	**dynam	**kern	**dynam	**kern	**dynam	**kern	**dynam	**kern	**dynam
*part13	*part12	*part12	*part11	*part11	*part10	*part10	*part9	*part9	*part8	*part8	*part7	*part7	*part6	*part6	*part5	*part5	*part4	*part4	*part3	*part3	*part2	*part2	*part1	*part1
*staff13	*staff12	*	*staff11	*	*staff10	*	*staff9	*	*staff8	*	*staff7	*	*staff6	*	*staff5	*	*staff4	*	*staff3	*	*staff2	*	*staff1	*
*Itimpa	*Iempty	*	*Iviola	*	*Ivioln	*	*Ivioln	*	*Itromt	*	*Itimpa	*	*Itromp	*	*Ifagot	*	*Icor	*	*Iclars	*	*Ioboe	*	*Iflt	*
*I"Tołombas	*I"Baſsi	*	*I"Viole	*	*I"Violini	*	*I"Violini	*	*I"Trombone	*	*I"d. a. Timpani	*	*I"in C Trombe	*	*I"Fagot	*	*I"in D. Corni	*	*I"in C Clarinetti	*	*I"Oboe	*	*I"Flauto	*
*stria1	*	*	*	*	*	*	*	*	*	*	*	*	*	*	*	*	*	*	*	*	*	*	*	*
*clefX	*clefF4	*	*clefC3	*	*clefG2	*	*clefG2	*	*clefF4	*	*clefF4	*	*clefG2	*	*clefF4	*	*clefG2	*	*clefG2	*	*clefG2	*	*clefG2	*
*	*	*	*	*	*	*	*	*	*	*	*	*	*	*	*	*	*ITrd6c10	*	*	*	*	*	*	*
*k[]	*k[f#c#]	*	*k[f#c#]	*	*k[f#c#]	*	*k[f#c#]	*	*k[f#c#]	*	*k[]	*	*k[f#c#]	*	*k[f#c#]	*	*k[f#c#]	*	*k[f#c#]	*	*k[f#c#]	*	*k[f#c#]	*
*D:	*D:	*	*D:	*	*D:	*	*D:	*	*D:	*	*D:	*	*D:	*	*D:	*	*D:	*	*D:	*	*D:	*	*D:	*
*M3/4	*M3/4	*	*M3/4	*	*M3/4	*	*M3/4	*	*M3/4	*	*M3/4	*	*M3/4	*	*M3/4	*	*M3/4	*	*M3/4	*	*M3/4	*	*M3/4	*
*>[A,B,A,B,C,B,D,E,D,E,F,E,A,B,A,B,C,B]	*>[A,B,A,B,C,B,D,E,D,E,F,E,A,B,A,B,C,B]	*	*>[A,B,A,B,C,B,D,E,D,E,F,E,A,B,A,B,C,B]	*	*>[A,B,A,B,C,B,D,E,D,E,F,E,A,B,A,B,C,B]	*	*>[A,B,A,B,C,B,D,E,D,E,F,E,A,B,A,B,C,B]	*	*>[A,B,A,B,C,B,D,E,D,E,F,E,A,B,A,B,C,B]	*	*>[A,B,A,B,C,B,D,E,D,E,F,E,A,B,A,B,C,B]	*	*>[A,B,A,B,C,B,D,E,D,E,F,E,A,B,A,B,C,B]	*	*>[A,B,A,B,C,B,D,E,D,E,F,E,A,B,A,B,C,B]	*	*>[A,B,A,B,C,B,D,E,D,E,F,E,A,B,A,B,C,B]	*	*>[A,B,A,B,C,B,D,E,D,E,F,E,A,B,A,B,C,B]	*	*>[A,B,A,B,C,B,D,E,D,E,F,E,A,B,A,B,C,B]	*	*>[A,B,A,B,C,B,D,E,D,E,F,E,A,B,A,B,C,B]	*
=1	=1	=1	=1	=1	=1	=1	=1	=1	=1	=1	=1	=1	=1	=1	=1	=1	=1	=1	=1	=1	=1	=1	=1	=1
*all\right	*all\right	*	*all\right	*	*all\right	*	*all\right	*	*all\right	*	*all\right	*	*all\right	*	*all\right	*	*all\right	*	*all\right	*	*all\right	*	*all\right	*
*2\right	*2\right	*	*2\right	*	*2\right	*	*2\right	*	*2\right	*	*2\right	*	*2\right	*	*2\right	*	*2\right	*	*2\right	*	*2\right	*	*2\right	*
*>A	*>A	*	*>A	*	*>A	*	*>A	*	*>A	*	*>A	*	*>A	*	*>A	*	*>A	*	*>A	*	*>A	*	*>A	*
!	!	!	!	!	!LO:TX:a:t=Uniſ	!	!	!	!	!	!	!	!	!	!	!	!	!	!	!	!	!	!LO:TX:a:i:t=No 5. Polonez Staro-dawne \nKochajmy się.	!
!	!	!	!	!	!	!	!	!	!	!	!LO:TX:t=P:problem=ambitus (D-AA) zarysowany przed metrum	!	!	!	!	!	!	!	!	!	!	!	!	!
!	!	!	!	!	!	!	!LO:TX:a:t=P:problem=partie od violini do tołombas połączone wspólnymi kreskami taktowymi; nie wyświetlają się one ze względu na zakodowanie klamry spinającej obie partie vl	!	!	!	!	!	!	!	!	!	!	!	!	!	!	!	!	!
!	!	!	!	!	!	!LO:DY:b:rj	!	!LO:DY:b:rj	!	!	!	!	!	!	!	!LO:DY:b:rj	!	!LO:DY:b:rj	!	!	!	!	!	!LO:DY:b:rj
8Re\	8D\L|	.	8d\L|	.	8d/L|yy	f	8d/L|	f	8D\	.	8D\	.	8dd 8f#/	.	8D\L	f	8d 8F#/	f	8d/L	.	8dd\L|	.	8dd\L|	f
8r	(>32A\LL	.	(>32a\LL	.	(y<32a/LLyy	.	(<32a/LL	.	8r	.	8r	.	8r	.	(>32A\LL	.	8r	.	(<32a/LL	.	(>32aa\LL	.	(>32aa\LL	.
.	32G\	.	32g\	.	32g/yy	.	32g/	.	.	.	.	.	.	.	32G\	.	.	.	32g/	.	32gg\	.	32gg\	.
.	32F#\	.	32f#\	.	32f#/yy	.	32f#/	.	.	.	.	.	.	.	32F#\	.	.	.	32f#/	.	32ff#\	.	32ff#\	.
.	32E\JJJ	.	32e\JJJ	.	32e/JJJyy	.	32e/JJJ	.	.	.	.	.	.	.	32E\JJJ	.	.	.	32e/JJJ	.	32ee\JJJ	.	32ee\JJJ	.
4r	4.D\)	.	4.d\)	.	4.d/)yy	.	4.d/)	.	4r	.	4r	.	4r	.	4.D\)	.	4r	.	4.d/)	.	4.dd\)	.	4.dd\)	.
4r	.	.	.	.	.	.	.	.	4r	.	4r	.	4r	.	.	.	4r	.	.	.	.	.	.	.
.	8F#\	.	8f#\	.	8f#/yy	.	8f#/	.	.	.	.	.	.	.	8F#\	.	.	.	8f#/	.	8ff#\	.	8ff#\	.
=2	=2	=2	=2	=2	=2	=2	=2	=2	=2	=2	=2	=2	=2	=2	=2	=2	=2	=2	=2	=2	=2	=2	=2	=2
!	!	!	!	!	!	!	!	!	!	!	!	!	!	!	!LO:TX:a:t=Col b&colon;	!	!	!	!	!	!LO:TX:a:t=Col Fl.	!	!	!
2.r	(>16G\LL	.	(>16g\LL	.	(y<16g/LLyy	.	(<16g/LL	.	2.r	.	2.r	.	2.r	.	(y>16G\LLyy	.	2.r	.	(<16g/LL	.	(y>16gg\LLyy	.	(>16gg\LL	.
.	16F#\	.	16f#\	.	16f#/yy	.	16f#/	.	.	.	.	.	.	.	16F#\yy	.	.	.	16f#/	.	16ff#\yy	.	16ff#\	.
.	16G\	.	16g\	.	16g/yy	.	16g/	.	.	.	.	.	.	.	16G\yy	.	.	.	16g/	.	16gg\yy	.	16gg\	.
.	16A\JJ	.	16a\JJ	.	16a/JJyy	.	16a/JJ	.	.	.	.	.	.	.	16A\JJyy	.	.	.	16a/JJ)	.	16aa\JJyy	.	16aa\JJ	.
.	4.B\)	.	4.b\)	.	4.b/)yy	.	4.b/)	.	.	.	.	.	.	.	4.B\)yy	.	.	.	4.b/	.	4.bb\)yy	.	4.bb\)	.
.	8G\	.	8g\	.	8g/yy	.	8g/	.	.	.	.	.	.	.	8G\yy	.	.	.	8g/	.	8gg\yy	.	8gg\	.
=3	=3	=3	=3	=3	=3	=3	=3	=3	=3	=3	=3	=3	=3	=3	=3	=3	=3	=3	=3	=3	=3	=3	=3	=3
8Re\	8AA/L|	.	8A\L|	.	8A/L|yy	.	8A/L|	.	8AA/	.	8AA/	.	8a 8c#/	.	8AA/L|yy	.	8e 8A/	.	8A/L	.	8a\L|yy	.	8a\L|	.
8r	(<32E/LL	.	(>32e\LL	.	(y<32e/LLyy	.	(<32e/LL	.	8r	.	8r	.	8r	.	(y<32E/LLyy	.	8r	.	(<32e/LL	.	(y>32ee\LLyy	.	(>32ee\LL	.
.	32D/	.	32d\	.	32d/yy	.	32d/	.	.	.	.	.	.	.	32D/yy	.	.	.	32d/	.	32dd\yy	.	32dd\	.
.	32C#/	.	32c#\	.	32c#/yy	.	32c#/	.	.	.	.	.	.	.	32C#/yy	.	.	.	32c#/	.	32cc#\yy	.	32cc#\	.
.	32BB/JJJ	.	32B\JJJ	.	32B/JJJyy	.	32B/JJJ	.	.	.	.	.	.	.	32BB/JJJyy	.	.	.	32B/JJJ	.	32b\JJJyy	.	32b\JJJ	.
4r	4.AA/)	.	4.A/)	.	4.A/)yy	.	4.A/)	.	4r	.	4r	.	4r	.	4.AA/)yy	.	4r	.	4.A/)	.	4.a\)yy	.	4.a\)	.
4r	.	.	.	.	.	.	.	.	4r	.	4r	.	4r	.	.	.	4r	.	.	.	.	.	.	.
.	8C#/	.	8c#\	.	8c#/yy	.	8c#/	.	.	.	.	.	.	.	8C#/yy	.	.	.	8c#/	.	8cc#\yy	.	8cc#\	.
!!LO:PB:g=original
=4	=4	=4	=4	=4	=4	=4	=4	=4	=4	=4	=4	=4	=4	=4	=4	=4	=4	=4	=4	=4	=4	=4	=4	=4
4r	(>16D\LL	.	(>16d\LL	.	(y<16d/LLyy	.	(<16d/LL	.	4r	.	4r	.	4r	.	(y>16D\LLyy	.	4r	.	(<16d/LL	.	(>16dd\LL	.	(>16dd\LL	.
.	16C#\	.	16c#\	.	16c#/yy	.	16c#/	.	.	.	.	.	.	.	16C#\yy	.	.	.	16c#/	.	16cc#\	.	16cc#\	.
.	16D\	.	16d\	.	16d/yy	.	16d/	.	.	.	.	.	.	.	16D\yy	.	.	.	16d/	.	16dd\	.	16dd\	.
.	16E\JJ	.	16e\JJ	.	16e/JJyy	.	16e/JJ	.	.	.	.	.	.	.	16E\JJyy	.	.	.	16e/JJ	.	16ee\JJ	.	16ee\JJ	.
4r	16F#\LL	.	16f#\LL	.	16f#/LLyy	.	16f#/LL	.	4r	.	4r	.	4r	.	16F#\LLyy	.	4r	.	16f#/LL	.	16ff#\LL	.	16ff#\LL	.
.	16E\	.	16e\	.	16e/yy	.	16e/	.	.	.	.	.	.	.	16E\yy	.	.	.	16e/	.	16ee\	.	16ee\	.
.	16F#\	.	16f#\	.	16f#/yy	.	16f#/	.	.	.	.	.	.	.	16F#\yy	.	.	.	16f#/	.	16ff#\	.	16ff#\	.
.	16G\JJ	.	16g\JJ)	.	16g/JJ)yy	.	16g/JJ	.	.	.	.	.	.	.	16G\JJyy	.	.	.	16g/JJ	.	16gg\JJ	.	16gg\JJ	.
!	!	!	!LO:TX:t=P:problem=mixed beam	!	!	!	!	!	!	!	!	!	!	!	!	!	!	!	!	!	!	!	!	!
8Re/	8A\)	.	16a\KL	.	8.a/L	.	8a/)	.	8AA/	.	8AA/	.	8a 8c#/	.	8A\)yy	.	8e 8A/	.	8a/)	.	8aa\)	.	8aa\)	.
.	.	.	8A/	.	.	.	.	.	.	.	.	.	.	.	.	.	.	.	.	.	.	.	.	.
8r	8r	.	.	.	.	.	8r	.	8r	.	8r	.	8r	.	8ryy	.	8r	.	8r	.	8r	.	8r	.
.	.	.	16c#/Jk	.	16g/Jk	.	.	.	.	.	.	.	.	.	.	.	.	.	.	.	.	.	.	.
!LO:TX:a:t=[segno]	!LO:TX:a:t=[segno]	!	!LO:TX:a:t=[segno]	!	!LO:TX:a:t=[segno]	!	!LO:TX:a:t=[segno]	!	!LO:TX:a:t=[segno]	!	!LO:TX:a:t=[segno]	!	!LO:TX:a:t=[segno]	!	!LO:TX:a:t=[segno]	!	!LO:TX:a:t=[segno]	!	!LO:TX:a:t=[segno]	!	!LO:TX:a:t=[segno]	!	!LO:TX:a:t=[segno]	!
=5||	=5||	=5||	=5||	=5||	=5||	=5||	=5||	=5||	=5||	=5||	=5||	=5||	=5||	=5||	=5||	=5||	=5||	=5||	=5||	=5||	=5||	=5||	=5||	=5||
*>B	*>B	*	*>B	*	*>B	*	*>B	*	*>B	*	*>B	*	*>B	*	*>B	*	*>B	*	*>B	*	*>B	*	*>B	*
!LO:TX:a:t=P:problem=od tego miejsca partia tołombasu znika	!LO:TX:b:t=pizz&colon;	!	!	!	!	!LO:DY:b	!	!	!	!	!	!	!	!	!	!	!	!	!	!	!LO:TX:a:t=Col. vo. Io	!	!	!
2.ryy	4D\	.	(>16d\LL	.	(<16f#/LL	mf	4r	.	2.r	.	2.r	.	2.r	.	4r	.	4r	.	2.r	.	4ryy	.	4r	.
.	.	.	16e\)	.	16g/)	.	.	.	.	.	.	.	.	.	.	.	.	.	.	.	.	.	.	.
.	.	.	16f#'\	.	16a'/	.	.	.	.	.	.	.	.	.	.	.	.	.	.	.	.	.	.	.
.	.	.	16f#'\JJ	.	16a'/JJ	.	.	.	.	.	.	.	.	.	.	.	.	.	.	.	.	.	.	.
.	4d\	.	8f#'\L	.	8a'/L	.	4r	.	.	.	.	.	.	.	8r	.	8r	.	.	.	4ryy	.	4r	.
!	!	!	!	!	!	!	!	!	!	!	!	!	!	!	!	!	!	!LO:DY:b:rj	!	!	!	!	!	!
.	.	.	8d'\	.	8f#'/	.	.	.	.	.	.	.	.	.	(>8d'\L	.	(>8f#L 8A'>/	mf	.	.	.	.	.	.
.	.	.	.	.	.	.	(<32qqdd/LLL	.	.	.	.	.	.	.	.	.	.	.	.	.	(y<32qqdd/LLLyy	.	(<32qqddd/LLL	.
.	.	.	.	.	.	.	32qqee/JJJ	.	.	.	.	.	.	.	.	.	.	.	.	.	32qqee/JJJyy	.	32qqeee/JJJ	.
.	4r	.	8f#'\	.	8a'/	.	8.ff#\L)	.	.	.	.	.	.	.	8d'\	.	8f# 8A'>/	.	.	.	8.ff#\L)yy	.	8.fff#\L)	.
.	.	.	8d'\J	.	8f#'/J	.	.	.	.	.	.	.	.	.	8d'\J)	.	8f#J 8A'>/)	.	.	.	.	.	.	.
.	.	.	.	.	.	.	16dd\Jk	.	.	.	.	.	.	.	.	.	.	.	.	.	16dd\Jkyy	.	16ddd\Jk	.
=6	=6	=6	=6	=6	=6	=6	=6	=6	=6	=6	=6	=6	=6	=6	=6	=6	=6	=6	=6	=6	=6	=6	=6	=6
2.ryy	4GG/	.	(<16G/LL	.	(<16e/LL	.	(>4cc#\	.	2.r	.	2.r	.	2.r	.	4r	.	4r	.	2.r	.	(y>4cc#\yy	.	(>4ccc#\^<	.
.	.	.	16A/)	.	16f#/)	.	.	.	.	.	.	.	.	.	.	.	.	.	.	.	.	.	.	.
.	.	.	16B'/	.	16g'/	.	.	.	.	.	.	.	.	.	.	.	.	.	.	.	.	.	.	.
.	.	.	16B'/JJ	.	16g'/JJ	.	.	.	.	.	.	.	.	.	.	.	.	.	.	.	.	.	.	.
.	4G\	.	8B'/L	.	8g'/L	.	8b\)	.	.	.	.	.	.	.	8r	.	8r	.	.	.	8b\)yy	.	8bb\)	.
.	.	.	8G'/	.	8e'/	.	8r	.	.	.	.	.	.	.	8B\L	.	(>8gL 8e'\	.	.	.	8ryy	.	8r	.
.	4r	.	8B'/	.	8g'/	.	4r	.	.	.	.	.	.	.	8B\	.	8g 8e'\	.	.	.	4ryy	.	4r	.
.	.	.	8G'/J	.	8e'/J	.	.	.	.	.	.	.	.	.	8B\J	.	8gJ 8e'\)	.	.	.	.	.	.	.
=7	=7	=7	=7	=7	=7	=7	=7	=7	=7	=7	=7	=7	=7	=7	=7	=7	=7	=7	=7	=7	=7	=7	=7	=7
2.ryy	4AA/	.	(>16c#\LL	.	(<16e/LL	.	4r	.	2.r	.	2.r	.	2.r	.	4r	.	4r	.	2.r	.	4ryy	.	4r	.
.	.	.	16d\)	.	16f#/)	.	.	.	.	.	.	.	.	.	.	.	.	.	.	.	.	.	.	.
.	.	.	16e'\	.	16g'/	.	.	.	.	.	.	.	.	.	.	.	.	.	.	.	.	.	.	.
.	.	.	16e'\JJ	.	16g'/JJ	.	.	.	.	.	.	.	.	.	.	.	.	.	.	.	.	.	.	.
.	4A\	.	8e'\L	.	8g'/L	.	8r	.	.	.	.	.	.	.	8r	.	8r	.	.	.	8ryy	.	8r	.
.	.	.	8c#'\	.	8e'/	.	(>16ee\LL	.	.	.	.	.	.	.	8c#\L	.	8eL 8A/	.	.	.	(y>16ee\LLyy	.	(>16eee\LL	.
.	.	.	.	.	.	.	16dd\JJ)	.	.	.	.	.	.	.	.	.	.	.	.	.	16dd\JJ)yy	.	16ddd\JJ)	.
.	4r	.	8e'\	.	8g'/	.	16cc#'\LL	.	.	.	.	.	.	.	8c#\	.	8e 8A/	.	.	.	16cc#'\LLyy	.	16ccc#'\LL	.
.	.	.	.	.	.	.	16b'\	.	.	.	.	.	.	.	.	.	.	.	.	.	16b'\yy	.	16bb'\	.
.	.	.	8c#'\J	.	8e'/J	.	16a'\	.	.	.	.	.	.	.	8c#\J	.	8eJ 8A/	.	.	.	16a'\yy	.	16aa'\	.
.	.	.	.	.	.	.	16g'\JJ	.	.	.	.	.	.	.	.	.	.	.	.	.	16g'\JJyy	.	16gg'\JJ	.
!!LO:PB:g=original
=8	=8	=8	=8	=8	=8	=8	=8	=8	=8	=8	=8	=8	=8	=8	=8	=8	=8	=8	=8	=8	=8	=8	=8	=8
*	*^	*	*	*	*	*	*	*	*	*	*	*	*	*	*	*	*^	*	*^	*	*	*	*	*
!LO:TX:a:t=P:problem=od tego miejsca partia tołombasu powraca	!LO:TX:a:t=arco	!	!	!	!	!	!	!	!	!LO:N:vis=4.	!	!	!	!	!	!	!	!	!	!	!	!	!	!	!	!	!
2.r	8D/L	4.D^<\	.	8r	.	8r	.	(<4e#X^>/	.	4D^>\	.	2.r	.	2.r	.	8d\	.	8r	8r	.	8r	8ryy	.	(<4e#X/	.	(>4ee#X^<\	.
.	8G#X^</	.	.	(>8dL 8B^<\	.	(<8e#X/L	.	.	.	.	.	.	.	.	.	(>8B^<\L	.	(>8e#X/	4d^<\	.	(>8b^>/L	8g#X\L	.	.	.	.	.
.	8A/J	.	.	8d 8A\)	.	8f#/)	.	8f#/)	.	8r	.	.	.	.	.	8A\J)	.	8f#/L)	.	.	8a/J)	8a\J	.	8f#/)	.	8ff#\)	.
.	8r	8ryy	.	8d\J	.	8f#'/J	.	8r	.	8D\L	.	.	.	.	.	8A\L	.	8f#/	8d\L	.	8r	8ryy	.	8r	.	8r	.
.	4r	4ryy	.	8f#\L	.	8a'/L	.	4r	.	8D\	.	.	.	.	.	8A\	.	8f#/	8d\	.	4r	4ryy	.	4r	.	4r	.
.	.	.	.	8d\J	.	8f#'/J	.	.	.	8D\J	.	.	.	.	.	8A\J	.	8f#/J	8d\J	.	.	.	.	.	.	.	.
*	*v	*v	*	*	*	*	*	*	*	*	*	*	*	*	*	*	*	*	*	*	*v	*v	*	*	*	*	*
=9	=9	=9	=9	=9	=9	=9	=9	=9	=9	=9	=9	=9	=9	=9	=9	=9	=9	=9	=9	=9	=9	=9	=9	=9	=9
*	*	*	*	*	*	*	*	*	*	*	*tremolo	*	*	*	*	*	*	*	*	*	*	*	*	*	*
!	!	!	!	!	!	!	!	!	!	!	!	!	!	!	!LO:TX:a:t=Col b&colon;	!	!	!	!	!	!	!	!	!LO:TX:a:t=Col Vo. Io. 8va	!
!	!	!LO:DY:b:rj	!	!LO:DY:b:rj	!	!LO:DY:b:rj	!	!	!	!LO:DY:b:rj	!	!	!	!LO:DY:b:rj	!	!	!	!	!LO:DY:b:rj	!	!LO:DY:b:rj	!	!	!	!
4Re/	4D\	f	(>16d\LL	f	(<16f#/LL	f	4r	.	4D\	f	32D\LLL	.	4r	f	4D\yy	.	4.f#/	4.d\	f	4.a 4.f#/	f	4r	.	4ryy	.
.	.	.	.	.	.	.	.	.	.	.	32D\	.	.	.	.	.	.	.	.	.	.	.	.	.	.
.	.	.	16e\)	.	16g/)	.	.	.	.	.	32D\	.	.	.	.	.	.	.	.	.	.	.	.	.	.
.	.	.	.	.	.	.	.	.	.	.	32D\	.	.	.	.	.	.	.	.	.	.	.	.	.	.
.	.	.	16f#'\	.	16a'/	.	.	.	.	.	32D\	.	.	.	.	.	.	.	.	.	.	.	.	.	.
.	.	.	.	.	.	.	.	.	.	.	32D\	.	.	.	.	.	.	.	.	.	.	.	.	.	.
.	.	.	16f#'\JJ	.	16a'/JJ	.	.	.	.	.	32D\	.	.	.	.	.	.	.	.	.	.	.	.	.	.
.	.	.	.	.	.	.	.	.	.	.	32D\JJJ	.	.	.	.	.	.	.	.	.	.	.	.	.	.
*	*	*	*	*	*	*	*	*	*	*	*Xtremolo	*	*	*	*	*	*	*	*	*	*	*	*	*	*
4Re/	4d\	.	8f#'\L	.	8a'/L	.	8.r	.	4D\	.	8D\	.	8r	.	4d\yy	.	.	.	.	.	.	8.r	.	8.ryy	.
.	.	.	8d'\J	.	8f#'/J	.	.	.	.	.	8D\L	.	8f#L 8d/	.	.	.	8f#/L	8d\L	.	8aL 8f#/	.	.	.	.	.
.	.	.	.	.	.	.	16a/|>	.	.	.	.	.	.	.	.	.	.	.	.	.	.	16a/|>	.	16aa\|yy	.
.	.	.	.	.	.	.	(<32qqdd/LLL	.	.	.	.	.	.	.	.	.	.	.	.	.	.	(<32qqdd/LLL	.	(y<32qqddd/LLLyy	.
.	.	.	.	.	.	.	32qqee/JJJ	.	.	.	.	.	.	.	.	.	.	.	.	.	.	32qqee/JJJ	.	32qqeee/JJJyy	.
*	*	*	*rep	*	*rep	*	*	*	*	*	*	*	*	*	*	*	*	*	*	*	*	*	*	*	*
4Re/	4D\	.	8f#'\L	.	8a'/L	.	8ff#\L)	.	4D\	.	8D\	.	8a 8f#/	.	4D\yy	.	8f#/	8d\	.	8a 8f#/	.	8ff#\L)	.	8fff#\L)yy	.
.	.	.	8d'\J	.	8f#'/J	.	16ee\L	.	.	.	8D\J	.	8f#J 8d/	.	.	.	8f#/J	8d\J	.	8aJ 8f#/	.	16ee\L	.	16eee\Lyy	.
.	.	.	.	.	.	.	16dd\JJ	.	.	.	.	.	.	.	.	.	.	.	.	.	.	16dd\JJ	.	16ddd\JJyy	.
*	*	*	*Xrep	*	*Xrep	*	*	*	*	*	*	*	*	*	*	*	*	*	*	*	*	*	*	*	*
=10	=10	=10	=10	=10	=10	=10	=10	=10	=10	=10	=10	=10	=10	=10	=10	=10	=10	=10	=10	=10	=10	=10	=10	=10	=10
4Re/	4GG/	.	(<16G/LL	.	(<16e/LL	.	8cc#\|	.	4GG/	.	2.r	.	4r	.	4GG/yy	.	4.e/	4.B\	.	4.g 4.e/	.	8cc#\|>	.	8ccc#\|yy	.
.	.	.	16A/)	.	16f#/)	.	.	.	.	.	.	.	.	.	.	.	.	.	.	.	.	.	.	.	.
.	.	.	16B'/	.	16g'/	.	4b^<\|	.	.	.	.	.	.	.	.	.	.	.	.	.	.	4b^<\|>	.	4bb^<\|yy	.
.	.	.	16B'/JJ	.	16g'/JJ	.	.	.	.	.	.	.	.	.	.	.	.	.	.	.	.	.	.	.	.
4r	4G\	.	8B/L	.	8g'/L	.	.	.	4GG/	.	.	.	8r	.	4G\yy	.	.	.	.	.	.	.	.	.	.
.	.	.	8G/	.	8e'/	.	(>16bb\LL	.	.	.	.	.	8gL 8e/	.	.	.	4e/	8B\L	.	8gL 8e/	.	(>16bb\LL	.	(y>16bbb\LLyy	.
.	.	.	.	.	.	.	16aa\JJ)	.	.	.	.	.	.	.	.	.	.	.	.	.	.	16aa\JJ)	.	16aaa\JJ)yy	.
4r	4GG/	.	8B/	.	8g'/	.	16gg'\LL	.	4GG/	.	.	.	8b 8g/	.	4GG/yy	.	.	8e 8B\	.	8g 8e/	.	16gg'\LL	.	16ggg'\LLyy	.
.	.	.	.	.	.	.	16ff#'\	.	.	.	.	.	.	.	.	.	.	.	.	.	.	16ff#'\	.	16fff#'\yy	.
.	.	.	8G/J	.	8e'/J	.	16ee'\	.	.	.	.	.	8gJ 8e/	.	.	.	8ryy	8eJ 8B\	.	8gJ 8e/	.	16ee'\	.	16eee'\yy	.
.	.	.	.	.	.	.	16dd'\JJ	.	.	.	.	.	.	.	.	.	.	.	.	.	.	16dd'\JJ	.	16ddd'\JJyy	.
*	*	*	*	*	*	*	*	*	*	*	*	*	*	*	*	*	*v	*v	*	*	*	*	*	*	*
=11	=11	=11	=11	=11	=11	=11	=11	=11	=11	=11	=11	=11	=11	=11	=11	=11	=11	=11	=11	=11	=11	=11	=11	=11
*	*	*	*	*	*	*	*	*	*	*	*tremolo	*	*	*	*	*	*	*	*	*	*	*	*	*
4Re/	4AA/	.	(>16c#\LL	.	(<16e/LL	.	(>16cc#\LL	.	4AA/	.	32AA/LLL	.	4r	.	4AA/yy	.	4.e 4.A\	.	4.g 4.e/	.	(>16cc#\LL	.	(y>16ccc#\LLyy	.
.	.	.	.	.	.	.	.	.	.	.	32AA/	.	.	.	.	.	.	.	.	.	.	.	.	.
.	.	.	16d\)	.	16f#/)	.	16b\	.	.	.	32AA/	.	.	.	.	.	.	.	.	.	16b\	.	16bb\yy	.
.	.	.	.	.	.	.	.	.	.	.	32AA/	.	.	.	.	.	.	.	.	.	.	.	.	.
.	.	.	16e'\	.	16g'/	.	16a\	.	.	.	32AA/	.	.	.	.	.	.	.	.	.	16a\	.	16aa\yy	.
.	.	.	.	.	.	.	.	.	.	.	32AA/	.	.	.	.	.	.	.	.	.	.	.	.	.
.	.	.	16e'\JJ	.	16g'/JJ	.	16b\JJ	.	.	.	32AA/	.	.	.	.	.	.	.	.	.	16b\JJ	.	16bb\JJyy	.
.	.	.	.	.	.	.	.	.	.	.	32AA/JJJ	.	.	.	.	.	.	.	.	.	.	.	.	.
*	*	*	*	*	*	*	*	*	*	*	*Xtremolo	*	*	*	*	*	*	*	*	*	*	*	*	*
4Re/	4A\	.	8e'\L	.	8g'/L	.	16cc#\LL	.	4AA/	.	8AA/	.	8r	.	4A\yy	.	.	.	.	.	16cc#\LL	.	16ccc#\LLyy	.
.	.	.	.	.	.	.	16dd\	.	.	.	.	.	.	.	.	.	.	.	.	.	16dd\	.	16ddd\yy	.
.	.	.	8c#'\	.	8e'/	.	16ee\	.	.	.	8AA/L	.	8eL 8c#/	.	.	.	8eL 8A\	.	8gL 8e/	.	16ee\	.	16eee\yy	.
.	.	.	.	.	.	.	16ff#\JJ	.	.	.	.	.	.	.	.	.	.	.	.	.	16ff#\JJ	.	16fff#\JJyy	.
4Re/	4AA/	.	8e'\	.	8g'/	.	16gg\LL	.	4AA/	.	8AA/	.	8g 8e/	.	4AA/yy	.	8e 8A\	.	8g 8e/	.	16gg\LL	.	16ggg\LLyy	.
.	.	.	.	.	.	.	16aa\	.	.	.	.	.	.	.	.	.	.	.	.	.	16aa\	.	16aaa\yy	.
.	.	.	8c#'\J	.	8e'/J	.	16bb\JJ)	.	.	.	8AA/J	.	8eJ 8c#/	.	.	.	8eJ 8A\	.	8gJ 8e/	.	16bb\JJ)	.	16bbb\JJ)yy	.
.	.	.	.	.	.	.	32r	.	.	.	.	.	.	.	.	.	.	.	.	.	32r	.	32ryy	.
.	.	.	.	.	.	.	32a\|	.	.	.	.	.	.	.	.	.	.	.	.	.	32a\|	.	32aa\|yy	.
!!LO:PB:g=original
=12	=12	=12	=12	=12	=12	=12	=12	=12	=12	=12	=12	=12	=12	=12	=12	=12	=12	=12	=12	=12	=12	=12	=12	=12
4Re/	8D/L	.	8d\L	.	8f#'/L	.	8dd'\L	.	8D/L	.	8D/L	.	8f#L 8d'/	.	8D/L	.	8f# 8d\	.	8f#L 8d'/	.	8dd'\Lyy	.	8ddd'\Lyy	.
.	8AA/J	.	8c#\J	.	(<16a/L	.	(>16ff#\L	.	8AA/J	.	8AA/J	.	(<16aL 16f#/	.	8AA/J	.	8r	.	(<16aL 16f#/	.	(y>16ff#\Lyy	.	(y>16fff#\Lyy	.
.	.	.	.	.	16g/JJ)	.	16ee\JJ)	.	.	.	.	.	16gJJ 16e/)	.	.	.	.	.	16gJJ 16e/)	.	16ee\JJ)yy	.	16eee\JJ)yy	.
8r	8r	.	(>4c#\	.	(<4g/	.	(>4ee\	.	8r	.	8r	.	(>4g 4c#/	.	8r	.	4e 4A/	.	(>4g 4c#/	.	(y>4ee\yy	.	(y>4eee\yy	.
8Re/L	8AA/L	.	.	.	.	.	.	.	8AA/L	.	8AA/L	.	.	.	8AA/L	.	.	.	.	.	.	.	.	.
8Re/J	8D/J	.	8d\)	.	8f#/)	.	8dd\)	.	8D/J	.	8D/J	.	8f# 8d/)	.	8D/J	.	8d 8F#/	.	8f# 8d/)	.	8dd\)yy	.	8ddd\)yy	.
8r	8r	.	8r	.	8r	.	8r	.	8r	.	8r	.	8r	.	8r	.	8r	.	8r	.	8ryy	.	8ryy	.
=13:|!	=13:|!	=13:|!	=13:|!	=13:|!	=13:|!	=13:|!	=13:|!;>	=13:|!	=13:|!	=13:|!	=13:|!	=13:|!	=13:|!	=13:|!	=13:|!	=13:|!	=13:|!	=13:|!	=13:|!	=13:|!	=13:|!;>	=13:|!	=13:|!;>	=13:|!
*>C	*>C	*	*>C	*	*>C	*	*>C	*	*>C	*	*>C	*	*>C	*	*>C	*	*>C	*	*>C	*	*>C	*	*>C	*
!	!	!	!LO:TX:a:t=Col b&colon;	!	!LO:TX:a:t=Col Vo. Io.	!	!	!	!	!	!	!	!	!	!	!	!	!	!	!	!	!	!	!
4Re/	8AA'/L	.	8A'/Lyy	.	8a'\Lyy	.	8a'\L	.	4AA/	.	4AA/	.	4r	.	4r	.	4r	.	4r	.	4r	.	8aa\L|	.
.	(<32E/LL	.	(y<32e/LLyy	.	(>32ee\LLyy	.	(>32ee\LL	.	.	.	.	.	.	.	.	.	.	.	.	.	.	.	(>32eee\LL	.
.	32D/	.	32d/yy	.	32dd\yy	.	32dd\	.	.	.	.	.	.	.	.	.	.	.	.	.	.	.	32ddd\	.
.	32C#/	.	32c#/yy	.	32cc#\yy	.	32cc#\	.	.	.	.	.	.	.	.	.	.	.	.	.	.	.	32ccc#\	.
.	32BB/JJJ	.	32B/JJJyy	.	32b\JJJyy	.	32b\JJJ	.	.	.	.	.	.	.	.	.	.	.	.	.	.	.	32bb\JJJ	.
4r	8AA/)	.	8A/)yy	.	8a/)yy	.	8a/)	.	4r	.	4r	.	8r	.	8r	.	8r	.	8r	.	8r	.	8aa\)	.
.	8r	.	8ryy	.	8ryy	.	8r	.	.	.	.	.	16gLL 16e'/	.	8c#\L	.	8eL 8A/	.	16eeLL 16a'\	.	16gg'\LL	.	8r	.
.	.	.	.	.	.	.	.	.	.	.	.	.	16gJJ 16e'/	.	.	.	.	.	16eeJJ 16a'\	.	16gg'\JJ	.	.	.
4r	8r	.	8ryy	.	8ryy	.	8r	.	4r	.	8r	.	16f#LL 16d'/	.	8d\	.	8f# 8d/	.	16ddLL 16a'\	.	16ff#'\LL	.	8r	.
.	.	.	.	.	.	.	.	.	.	.	.	.	16f# 16d'/	.	.	.	.	.	16dd 16a'\	.	16ff#'\	.	.	.
.	32r	.	32ryy	.	32ryy	.	32r	.	.	.	8AA/	.	16e 16c#'/	.	8A\J	.	8eJ 8A/	.	16cc# 16a'\	.	16ee'\	.	32r	.
.	(<32AA/LLL	.	(y<32A/LLLyy	.	(y>32a\LLLyy	.	(>32a\LLL	.	.	.	.	.	.	.	.	.	.	.	.	.	.	.	(>32aa\LLL	.
.	32BB/	.	32B/yy	.	32b\yy	.	32b\	.	.	.	.	.	16eJJ 16c#'/	.	.	.	.	.	16cc#JJ 16a'\	.	16ee'\JJ	.	32bb\	.
.	32C#/JJJ	.	32c#/JJJyy	.	32cc#\JJJyy	.	32cc#\JJJ	.	.	.	.	.	.	.	.	.	.	.	.	.	.	.	32ccc#\JJJ	.
=14	=14	=14	=14	=14	=14	=14	=14	=14	=14	=14	=14	=14	=14	=14	=14	=14	=14	=14	=14	=14	=14	=14	=14	=14
4Re/	8D\L)|	.	8d\L)|yy	.	8dd\L)|yy	.	8dd\L)|	.	4D\	.	4D/	.	4r	.	4ryy	.	4r	.	4r	.	4r	.	8ddd\L)	.
.	(>32A\LL	.	(y>32a\LLyy	.	(y>32aa\LLyy	.	(>32aa\LL	.	.	.	.	.	.	.	.	.	.	.	.	.	.	.	(>32aaa\LL	.
.	32G\	.	32g\yy	.	32gg\yy	.	32gg\	.	.	.	.	.	.	.	.	.	.	.	.	.	.	.	32ggg\	.
.	32F#\	.	32f#\yy	.	32ff#\yy	.	32ff#\	.	.	.	.	.	.	.	.	.	.	.	.	.	.	.	32fff#\	.
.	32E\JJJ	.	32e\JJJyy	.	32ee\JJJyy	.	32ee\JJJ	.	.	.	.	.	.	.	.	.	.	.	.	.	.	.	32eee\JJJ	.
4r	8D\)	.	8d\)yy	.	8dd\)yy	.	8dd\)	.	4r	.	4r	.	8r	.	8ryy	.	8r	.	8r	.	8r	.	8ddd\)	.
.	8r	.	8ryy	.	8ryy	.	8r	.	.	.	.	.	16aLL 16f#'/	.	8d\L	.	8aL 8f#\	.	16ff#LL 16a'\	.	16aa'\LL	.	8r	.
.	.	.	.	.	.	.	.	.	.	.	.	.	16aJJ 16f#'/	.	.	.	.	.	16ff#JJ 16a'\	.	16aa'\JJ	.	.	.
4r	8r	.	8ryy	.	8ryy	.	8r	.	4r	.	8r	.	16gLL 16e'/	.	8A#X\	.	8g 8e\	.	16eeLL 16cc#'\	.	16gg'\LL	.	8r	.
.	.	.	.	.	.	.	.	.	.	.	.	.	16g 16e'/	.	.	.	.	.	16ee 16cc#'\	.	16gg'\	.	.	.
.	32r	.	32ryy	.	32ryy	.	32r	.	.	.	8D/	.	16f# 16d'/	.	8B\J	.	8f#J 8d\	.	16dd'\	.	16ff#'\	.	32r	.
.	(<32FF#/LLL	.	(y<32F#/LLLyy	.	(y<32f#/LLLyy	.	(<32f#/LLL	.	.	.	.	.	.	.	.	.	.	.	.	.	.	.	(>32ff#\LLL	.
.	32GG#X/	.	32G#X/yy	.	32g#X/yy	.	32g#X/	.	.	.	.	.	16f#JJ 16d'/	.	.	.	.	.	16dd'\JJ	.	16ff#'\JJ	.	32gg#X\	.
.	32AA#X/JJJ	.	32A#X/JJJyy	.	32a#X/JJJyy	.	32a#X/JJJ	.	.	.	.	.	.	.	.	.	.	.	.	.	.	.	32aa#X\JJJ	.
!!LO:PB:g=original
=15	=15	=15	=15	=15	=15	=15	=15	=15	=15	=15	=15	=15	=15	=15	=15	=15	=15	=15	=15	=15	=15	=15	=15	=15
*	*	*	*	*	*	*	*	*	*	*	*	*	*	*	*	*	*^	*	*	*	*	*	*	*
!	!	!	!	!	!	!	!LO:TX:t=P:problem=brak dokończenia łuku	!	!	!	!	!	!	!	!	!	!	!	!	!	!	!	!	!	!
!	!LO:TX:t=P:problem=brak dokończenia łuku	!	!LO:TX:t=P:problem=brak dokończenia łuku	!	!LO:TX:t=P:problem=brak dokończenia łuku	!	!	!	!	!	!	!	!	!	!	!	!	!	!	!	!	!	!	!	!
4Re/	8BB/L)	.	8B\L)	.	8b\L)	.	8b\L)|	.	8BB/	.	4D\	.	4r	.	4r	.	4r	4ryy	.	4r	.	4r	.	8bb\L)|	.
.	(<32F#/LL	.	(>32f#\LL	.	(>32ff#\LL	.	(>32ff#\LL	.	8r	.	.	.	.	.	.	.	.	.	.	.	.	.	.	(>32fff#\LL	.
.	32E/	.	32e\	.	32ee\	.	32ee\	.	.	.	.	.	.	.	.	.	.	.	.	.	.	.	.	32eee\	.
.	32D/	.	32d\	.	32dd\	.	32dd\	.	.	.	.	.	.	.	.	.	.	.	.	.	.	.	.	32ddd\	.
.	32C#/JJJ	.	32c#\JJJ	.	32cc#\JJJ	.	32cc#\JJJ	.	.	.	.	.	.	.	.	.	.	.	.	.	.	.	.	32ccc#\JJJ	.
4r	8BB/)	.	8B/)	.	8b\)	.	8b\)	.	4r	.	4r	.	8r	.	8r	.	8r	8ryy	.	8r	.	8r	.	8bb\L)	.
.	8r	.	8r	.	8r	.	8r	.	.	.	.	.	16ddLL 16b\	.	8G#X\L	.	8e/L	8e\L	.	16eeLL 16g#X/	.	16bb'\LL	.	16ddd'\L	.
.	.	.	.	.	.	.	.	.	.	.	.	.	16ddJJ 16b\	.	.	.	.	.	.	16eeJJ 16g#/	.	16bb'\JJ	.	16ddd'\JJ	.
4r	8r	.	8r	.	8r	.	8r	.	4r	.	4r	.	16cc#LL 16a\	.	8A\J	.	8e/	8e\	.	16eeLL 16a/	.	16aa'\LL	.	16ccc#'\LL	.
.	.	.	.	.	.	.	.	.	.	.	.	.	16cc# 16a\	.	.	.	.	.	.	16ee 16a/	.	16aa'\	.	16ccc#'\	.
.	32r	.	32r	.	32r	.	32r	.	.	.	.	.	16b 16e\	.	(>16E\LL	.	8e/J	8e\J	.	16ee 16e/	.	16gg#X'\	.	16bb'\	.
!	!	!LO:DY:b:rj	!	!LO:DY:b:rj	!	!	!	!LO:DY:b:rj	!	!	!	!	!	!	!	!	!	!	!	!	!	!	!	!	!
.	(>32E\LLL	f	(<32E/LLL	f	32e/LLL	.	(<32e/LLL	f	.	.	.	.	.	.	.	.	.	.	.	.	.	.	.	.	.
!	!	!	!	!	!	!	!	!	!	!	!	!	!	!	!LO:N:vis=32.	!	!	!	!	!	!	!	!	!	!
.	32F#\	.	32F#/	.	32f#/	.	32f#/	.	.	.	.	.	16bJJ 16e\	.	32F#\L	.	.	.	.	16eeJJ 16e/	.	16gg#'\JJ	.	16bb'\JJ	.
.	32G#X\JJJ	.	32G#X/JJJ	.	32g#X/JJJ	.	32g#X/JJJ	.	.	.	.	.	.	.	32G#X\JJJ	.	.	.	.	.	.	.	.	.	.
=16	=16	=16	=16	=16	=16	=16	=16	=16	=16	=16	=16	=16	=16	=16	=16	=16	=16	=16	=16	=16	=16	=16	=16	=16	=16
*	*	*	*	*	*	*	*	*	*	*	*	*	*	*	*	*	*	*	*	*^	*	*	*	*	*
*	*	*	*	*	*	*	*	*	*tremolo	*	*	*	*	*	*tremolo	*	*	*	*	*	*	*	*	*	*	*
!	!	!	!	!	!	!	!	!	!	!	!	!LO:DY:b:rj	!	!	!	!LO:DY:b:rj	!	!	!	!	!	!LO:DY:b:rj	!	!LO:DY:a:rj	!	!
4Re/	8A\L)	.	8A/L)	.	8a/L	.	(>16a/LL)	.	8A\L	.	8AA/L	f	2a 2c#/	.	8A\L)	f	2e/	2e\	.	2cc#/	2a\	f	(>16aa\LL	f	(>16aa\LL	.
.	.	.	.	.	.	.	16cc#/)	.	.	.	.	.	.	.	.	.	.	.	.	.	.	.	16cc#\)	.	16ccc#\)	.
.	8E\J	.	8E/J	.	8e/J	.	16e'>/	.	8E\	.	32AA/LL	.	.	.	8E\	.	.	.	.	.	.	.	16ee'\	.	16ee'\	.
.	.	.	.	.	.	.	.	.	.	.	32AA/	.	.	.	.	.	.	.	.	.	.	.	.	.	.	.
.	.	.	.	.	.	.	16e'>/JJ	.	.	.	32AA/	.	.	.	.	.	.	.	.	.	.	.	16ee'\JJ	.	16ee'\JJ	.
.	.	.	.	.	.	.	.	.	.	.	32AA/JJJ	.	.	.	.	.	.	.	.	.	.	.	.	.	.	.
4r	8A\L	.	8A/L	.	8c#/L	.	(>16f#/LL	.	8A\	.	8AA/	.	.	.	8A\	.	.	.	.	.	.	.	(>16ff#\LL	.	(>16ff#\LL	.
.	.	.	.	.	.	.	16e/)	.	.	.	.	.	.	.	.	.	.	.	.	.	.	.	16ee\)	.	16ee\)	.
.	8E\	.	8E/	.	8e/	.	16e'>/	.	8E\J	.	8r	.	.	.	8E\J	.	.	.	.	.	.	.	16ee'\	.	16ee'\	.
.	.	.	.	.	.	.	16e'>/JJ	.	.	.	.	.	.	.	.	.	.	.	.	.	.	.	16ee'\JJ	.	16ee'\JJ	.
*	*	*	*	*	*	*	*	*	*Xtremolo	*	*	*	*	*	*	*	*	*	*	*	*	*	*	*	*	*
4Re/	8B\	.	8G#X/	.	8d/	.	(>16d#X/LL	.	8B\L	.	4D/	.	4g#X 4d/	.	8B\L	.	4e/	4e\	.	4dd/	4g#X\	.	(>16dd#X\LL	.	(>16dd#X\LL	.
.	.	.	.	.	.	.	16e/)	.	.	.	.	.	.	.	.	.	.	.	.	.	.	.	16ee\)	.	16ee\)	.
.	8E\J	.	8E/J	.	8e/J	.	16f#'>/	.	8E\J	.	.	.	.	.	8E\J	.	.	.	.	.	.	.	16ff#'\	.	16ff#'\	.
.	.	.	.	.	.	.	16g#X'>/JJ	.	.	.	.	.	.	.	.	.	.	.	.	.	.	.	16gg#X'\JJ	.	16gg#X'\JJ	.
=17	=17	=17	=17	=17	=17	=17	=17	=17	=17	=17	=17	=17	=17	=17	=17	=17	=17	=17	=17	=17	=17	=17	=17	=17	=17	=17
*	*	*	*	*	*	*	*	*	*rep	*	*rep	*	*	*	*	*	*	*	*	*	*	*	*	*	*	*
*	*tremolo	*	*tremolo	*	*tremolo	*	*	*	*tremolo	*	*	*	*	*	*	*	*	*	*	*	*	*	*	*	*	*
4Re/	8A\L	.	8A/L	.	8c#/L	.	(>16a\LL	.	8A\L	.	8AA/L	.	2a 2c#/	.	8A\L	.	2e/	2e\	.	2cc#/	2a\	.	(>16aa\LL	.	(>16aa\LL	.
.	.	.	.	.	.	.	16cc#\)	.	.	.	.	.	.	.	.	.	.	.	.	.	.	.	16cc#\)	.	16ccc#\)	.
.	8E\	.	8E/	.	8e/	.	16ee'\	.	8E\	.	32AA/LL	.	.	.	8E\	.	.	.	.	.	.	.	16ee'\	.	16eee'\	.
.	.	.	.	.	.	.	.	.	.	.	32AA/	.	.	.	.	.	.	.	.	.	.	.	.	.	.	.
.	.	.	.	.	.	.	16ee'\JJ	.	.	.	32AA/	.	.	.	.	.	.	.	.	.	.	.	16ee'\JJ	.	16eee'\JJ	.
.	.	.	.	.	.	.	.	.	.	.	32AA/JJJ	.	.	.	.	.	.	.	.	.	.	.	.	.	.	.
4r	8A\	.	8A/	.	8c#/	.	(>16ff#\LL	.	8A\	.	8AA/	.	.	.	8A\	.	.	.	.	.	.	.	(>16ff#\LL	.	(>16fff#\LL	.
.	.	.	.	.	.	.	16ee\)	.	.	.	.	.	.	.	.	.	.	.	.	.	.	.	16ee\)	.	16eee\)	.
.	8E\J	.	8E/J	.	8e/J	.	16ee'\	.	8E\J	.	8r	.	.	.	8E\J	.	.	.	.	.	.	.	16ee'\	.	16eee'\	.
.	.	.	.	.	.	.	16ee'\JJ	.	.	.	.	.	.	.	.	.	.	.	.	.	.	.	16ee'\JJ	.	16eee'\JJ	.
*	*	*	*	*	*	*	*	*	*Xtremolo	*	*	*	*	*	*	*	*	*	*	*	*	*	*	*	*	*
4Re/	8B\L	.	8G#X/L	.	8d/L	.	(>16dd#X\LL	.	8B\L	.	4D/	.	4g#X 4d/	.	8B\L	.	4e/	4e\	.	4dd/	4g#X\	.	(>16dd#X\LL	.	(>16ddd#X\LL	.
.	.	.	.	.	.	.	16ee\)	.	.	.	.	.	.	.	.	.	.	.	.	.	.	.	16ee\)	.	16eee\)	.
.	8E\J	.	8E/J	.	8e/J	.	16ddn'\	.	8E\J	.	.	.	.	.	8E\J	.	.	.	.	.	.	.	16ddn'\	.	16dddn'\	.
.	.	.	.	.	.	.	16b'\JJ	.	.	.	.	.	.	.	.	.	.	.	.	.	.	.	16b'\JJ	.	16bb'\JJ	.
*	*	*	*	*	*	*	*	*	*Xrep	*	*Xrep	*	*	*	*	*	*	*	*	*	*	*	*	*	*	*
!!LO:PB:g=original
=18	=18	=18	=18	=18	=18	=18	=18	=18	=18	=18	=18	=18	=18	=18	=18	=18	=18	=18	=18	=18	=18	=18	=18	=18	=18	=18
*	*	*	*	*	*	*	*	*	*tremolo	*	*	*	*	*	*	*	*	*	*	*	*	*	*	*	*	*
!	!	!	!	!	!	!	!	!	!	!	!	!	!	!	!	!	!LO:N:vis=2.	!LO:N:vis=2.	!	!	!	!	!	!	!	!
4Re/	8A\L	.	8A/L	.	8c#/L	.	(<16a/LL	.	8A\L	.	8AA/L	.	2a 2c#/	.	8A\L	.	2e/	2e\	.	2cc#/	2a\	.	(>16a\LL	.	(>16aa\LL	.
.	.	.	.	.	.	.	16cc#/)	.	.	.	.	.	.	.	.	.	.	.	.	.	.	.	16cc#\)	.	16ccc#\)	.
.	8E\	.	8E/	.	8e/	.	16e'/	.	8E\	.	32AA/LL	.	.	.	8E\	.	.	.	.	.	.	.	16ee'\	.	16ee'\	.
.	.	.	.	.	.	.	.	.	.	.	32AA/	.	.	.	.	.	.	.	.	.	.	.	.	.	.	.
.	.	.	.	.	.	.	16e'/JJ	.	.	.	32AA/	.	.	.	.	.	.	.	.	.	.	.	16ee'\JJ	.	16ee'\JJ	.
.	.	.	.	.	.	.	.	.	.	.	32AA/JJJ	.	.	.	.	.	.	.	.	.	.	.	.	.	.	.
4r	8A\	.	8A/	.	8c#/	.	(<16f#/LL	.	8A\	.	8AA/	.	.	.	8A\	.	.	.	.	.	.	.	(>16ff#\LL	.	(>16ff#\LL	.
.	.	.	.	.	.	.	16e/)	.	.	.	.	.	.	.	.	.	.	.	.	.	.	.	16ee\)	.	16ee\)	.
.	8E\J	.	8E/J	.	8e/J	.	16e'/	.	8E\J	.	8r	.	.	.	8E\J	.	.	.	.	.	.	.	16ee'\	.	16ee'\	.
.	.	.	.	.	.	.	16e'/JJ	.	.	.	.	.	.	.	.	.	.	.	.	.	.	.	16ee'\JJ	.	16ee'\JJ	.
*	*Xtremolo	*	*Xtremolo	*	*Xtremolo	*	*	*	*Xtremolo	*	*	*	*	*	*Xtremolo	*	*	*	*	*	*	*	*	*	*	*
4Re/	8B\L	.	8G#X/L	.	8d/L	.	(<16d#X/LL	.	8B\L	.	4D/	.	4g#X 4d/	.	8B\L	.	4e/	4e\	.	4dd/	4g#X\	.	(>16dd#X\LL	.	(>16dd#X\LL	.
.	.	.	.	.	.	.	16e/)	.	.	.	.	.	.	.	.	.	.	.	.	.	.	.	16ee\)	.	16ee\)	.
.	8E\J	.	8E/J	.	8e/J	.	16f#'/	.	8E\J	.	.	.	.	.	8E\J	.	.	.	.	.	.	.	16ff#'\	.	16ff#'\	.
.	.	.	.	.	.	.	16g#X'/JJ	.	.	.	.	.	.	.	.	.	.	.	.	.	.	.	16gg#X'\JJ	.	16gg#X'\JJ	.
=19	=19	=19	=19	=19	=19	=19	=19	=19	=19	=19	=19	=19	=19	=19	=19	=19	=19	=19	=19	=19	=19	=19	=19	=19	=19	=19
!	!	!	!	!	!	!	!	!	!	!	!	!	!	!	!LO:TX:a:t=Col b&colon;	!	!	!	!	!	!	!	!	!	!	!
4Re/	8.A\L|	.	8.A/L	.	8c#/L	.	8.a/L	.	8A\	.	4AA/	.	8a 8c#/	.	8.A\L|yy	.	8A/	8A\	.	8cc#/L	8a\L	.	8.aa\L	.	8.aa\L	.
.	.	.	.	.	16r	.	.	.	8r	.	.	.	8r	.	.	.	8r	8ryy	.	16rb	16rb	.	.	.	.	.
.	(>32G#X\LL	.	32G#X/LL	.	(<32g#X/LL	.	(<32g#X/LL	.	.	.	.	.	.	.	(y>32G#X\LLyy	.	.	.	.	(>32g#X/	32g#\	.	(>32gg#X\LL	.	(>32gg#X\LL	.
.	32A\JJJ	.	32A/JJJ	.	32a/JJJ)	.	32a/JJJ	.	.	.	.	.	.	.	32A\JJJyy	.	.	.	.	32a/J	32a\J	.	32aa\JJJ	.	32aa\JJJ	.
4r	8.E\L)|	.	8.e\L	.	8.cc#\L	.	8.cc#\L)	.	8E\	.	4r	.	8cc# 8c#/	.	8.E\L)|yy	.	8c#/	8c#\	.	8.cc#\L)	8.ryy	.	8.cc#\L)	.	8.ccc#\L)	.
.	.	.	.	.	.	.	.	.	8r	.	.	.	8r	.	.	.	8r	8ryy	.	.	.	.	.	.	.	.
.	(>32D#X\LL	.	32d#X\LL	.	(>32b#X\LL	.	(>32b#X\LL	.	.	.	.	.	.	.	(y>32D#X\LLyy	.	.	.	.	(>32b#X\LL	32ryy	.	(32b#X\LL	.	(>32bb#X\LL	.
.	32E\JJJ	.	32e\JJJ	.	32cc#\JJJ)	.	32cc#\JJJ	.	.	.	.	.	.	.	32E\JJJyy	.	.	.	.	32cc#\JJJ	32ryy	.	32cc#\JJJ	.	32ccc#\JJJ	.
4r	8.C#/L)|	.	8.c#/L	.	8.ee\L	.	8.ee\L)	.	8C#/	.	4r	.	8ee 8e/	.	8.C#/L)|yy	.	8e/	8e\	.	8.ee\L)	8.ryy	.	8.ee\L)	.	8.eee\L)	.
.	.	.	.	.	.	.	.	.	8r	.	.	.	8r	.	.	.	8r	8ryy	.	.	.	.	.	.	.	.
.	(<32BB#X/LL	.	32B#X/LL	.	(>32dd#X\LL	.	(>32dd#X\LL	.	.	.	.	.	.	.	(y<32BB#X/LLyy	.	.	.	.	(>32dd#X\LL	32ryy	.	(>32dd#X\LL	.	(>32ddd#X\LL	.
.	32C#/JJJ)	.	32c#/JJJ	.	32ee\JJJ)	.	32ee\JJJ	.	.	.	.	.	.	.	32C#/JJJ)yy	.	.	.	.	32ee\JJJ	32ryy	.	32ee\JJJ	.	32eee\JJJ	.
*	*	*	*	*	*	*	*	*	*	*	*	*	*	*	*	*	*v	*v	*	*	*	*	*	*	*	*
=20	=20	=20	=20	=20	=20	=20	=20	=20	=20	=20	=20	=20	=20	=20	=20	=20	=20	=20	=20	=20	=20	=20	=20	=20	=20
*	*	*	*	*	*	*	*	*	*	*	*	*	*^	*	*	*	*	*	*	*	*	*	*	*	*
!	!LO:TX:b:t=sec	!	!	!	!	!	!LO:TX:b:t=sec	!	!	!	!	!	!	!	!	!LO:TX:b:t=sec	!	!	!	!	!	!	!	!	!	!
8Re/	8AA/	.	8a 8e 8A\	.	8cc# 8e 8A/	.	8gg 8a\)	.	8AA/	.	8AA/	.	8cc# 8e/	8ryy	.	8AA/yy	.	8g 8e\	.	8cc#/)	8a\	.	8gg\)	.	8ggg\)	.
8r	8r	.	8r	.	8r	.	8r	.	8r	.	8r	.	8r	8ryy	.	8ryy	.	8r	.	(>16eeLL 16cc#\	16ryy	.	(>16bb-X\LL	.	8r	.
.	.	.	.	.	.	.	.	.	.	.	.	.	.	.	.	.	.	.	.	16ff#JJ 16dd\)	16ryy	.	16aa\JJ)	.	.	.
4r	4r	.	4r	.	4r	.	4r	.	4r	.	4r	.	4r	4ryy	.	4ryy	.	4r	.	8cc#L 8a#X'\	8ryy	.	8gg'\L	.	4r	.
.	.	.	.	.	.	.	.	.	.	.	.	.	.	.	.	.	.	.	.	(>16cc#L 16a#\	16ryy	.	(>16gg\L	.	.	.
.	.	.	.	.	.	.	.	.	.	.	.	.	.	.	.	.	.	.	.	16ddJJ 16b\)	16ryy	.	16ff#\JJ)	.	.	.
4r	8r	.	8r	.	8r	.	8r	.	8r	.	4r	.	8r	8ryy	.	8ryy	.	8r	.	8b/L	8g\L	.	8ee'\L	.	4r	.
.	16G\LL	.	16B\LL	.	16e/LL	.	16ee\LL	.	16G\LL	.	.	.	16ee/LL	16b\LL	.	16G\LLyy	.	8g 8e\	.	16b/L	8g\J	.	(>16ee\L	.	.	.
.	16A\JJ	.	16e\JJ	.	16g/JJ	.	16cc#\JJ	.	16A\JJ	.	.	.	16cc#/JJ	16a\JJ	.	16A\JJyy	.	.	.	16a#/JJ	.	.	16cc#\JJ)	.	.	.
*	*	*	*	*	*	*	*	*	*	*	*	*	*v	*v	*	*	*	*	*	*v	*v	*	*	*	*	*
!	!	!	!	!	!	!	!LO:TX:a:t=[segno]	!	!	!	!	!	!	!	!	!	!	!	!	!	!	!	!LO:TX:a:t=[segno]	!
!!LO:PB:g=original
=21||	=21||	=21||	=21||	=21||	=21||	=21||	=21||	=21||	=21||	=21||	=21||	=21||	=21||	=21||	=21||	=21||	=21||	=21||	=21||	=21||	=21||	=21||	=21||	=21||
*>D	*>D	*	*>D	*	*>D	*	*>D	*	*>D	*	*>D	*	*>D	*	*>D	*	*>D	*	*>D	*	*>D	*	*>D	*
*	*k[cnf#]	*	*k[cnf#]	*	*k[cnf#]	*	*k[cnf#]	*	*k[cnf#]	*	*k[f#]	*	*k[cnf#]	*	*k[cnf#]	*	*k[f#c#]	*	*k[cnf#]	*	*k[cnf#]	*	*k[cnf#]	*
*M3/4	*M3/4	*	*M3/4	*	*M3/4	*	*M3/4	*	*M3/4	*	*M3/4	*	*M3/4	*	*M3/4	*	*M3/4	*	*M3/4	*	*M3/4	*	*M3/4	*
*	*	*	*tremolo	*	*tremolo	*	*tremolo	*	*	*	*	*	*	*	*	*	*	*	*	*	*	*	*	*
!	!	!	!	!	!LO:TX:a:t=Uniſ	!	!	!	!LO:TX:a:t=P:problem=w źródle brak krzyżyka przy metrum	!	!LO:TX:a:t=P:problem=w źródle zamiast znaków przykluczowych jest kreska	!	!	!	!	!	!	!	!	!	!	!	!LO:TX:a:i:t=Trio.	!
!	!	!	!	!	!	!LO:DY:b	!	!LO:DY:b	!	!	!	!	!	!	!	!	!	!	!	!	!	!	!	!
2.r	8r	.	8r	.	8ryy	f	8r	f	2.r	.	2.r	.	2.r	.	2.r	.	2.r	.	2.r	.	2.r	.	2.r	.
!	!	!LO:DY:b:rj	!	!LO:DY:b:rj	!	!	!	!	!	!	!	!	!	!	!	!	!	!	!	!	!	!	!	!
.	8D\L	f	16d\LL	f	16d/LLyy	.	16d/LL	.	.	.	.	.	.	.	.	.	.	.	.	.	.	.	.	.
.	.	.	16d\	.	16d/yy	.	16d/	.	.	.	.	.	.	.	.	.	.	.	.	.	.	.	.	.
.	8C#X\	.	16c#X\	.	16c#X/yy	.	16c#X/	.	.	.	.	.	.	.	.	.	.	.	.	.	.	.	.	.
.	.	.	16c#\	.	16c#/yy	.	16c#/	.	.	.	.	.	.	.	.	.	.	.	.	.	.	.	.	.
.	8D\	.	16d\	.	16d/yy	.	16d/	.	.	.	.	.	.	.	.	.	.	.	.	.	.	.	.	.
.	.	.	16d\	.	16d/yy	.	16d/	.	.	.	.	.	.	.	.	.	.	.	.	.	.	.	.	.
.	8E\	.	16e\	.	16e/yy	.	16e/	.	.	.	.	.	.	.	.	.	.	.	.	.	.	.	.	.
.	.	.	16e\	.	16e/yy	.	16e/	.	.	.	.	.	.	.	.	.	.	.	.	.	.	.	.	.
.	8D\J	.	16d\	.	16d/yy	.	16d/	.	.	.	.	.	.	.	.	.	.	.	.	.	.	.	.	.
.	.	.	16d\JJ	.	16d/JJyy	.	16d/JJ	.	.	.	.	.	.	.	.	.	.	.	.	.	.	.	.	.
=22	=22	=22	=22	=22	=22	=22	=22	=22	=22	=22	=22	=22	=22	=22	=22	=22	=22	=22	=22	=22	=22	=22	=22	=22
4r	8C#X\L	.	16c#X\LL	.	16c#X/LL	.	16c#X/LL	.	4r	.	4r	.	4r	.	4r	.	4r	.	4r	.	4r	.	4r	.
.	.	.	16c#\	.	16c#/	.	16c#/	.	.	.	.	.	.	.	.	.	.	.	.	.	.	.	.	.
.	8D\	.	16d\	.	16d/	.	16d/	.	.	.	.	.	.	.	.	.	.	.	.	.	.	.	.	.
.	.	.	16d\	.	16d/	.	16d/	.	.	.	.	.	.	.	.	.	.	.	.	.	.	.	.	.
4r	8E\	.	16e\	.	16e/	.	16e/	.	8r	.	4r	.	8r	.	8r	.	4r	.	8r	.	8r	.	8r	.
.	.	.	16e\	.	16e/	.	16e/	.	.	.	.	.	.	.	.	.	.	.	.	.	.	.	.	.
!	!	!	!	!	!	!	!	!	!	!LO:DY:b:rj	!	!	!	!LO:DY:b:rj	!	!LO:DY:b	!	!	!	!LO:DY:b:rj	!	!	!	!LO:DY:b:rj
.	8D\J	.	16d\	.	16d/	.	16d/	.	8D'/L	f	.	.	8d/L	f	8d\L	f	.	.	8d/L	f	8dd'\L	.	8dd'\L	f
.	.	.	16d\	.	16d/	.	16d/	.	.	.	.	.	.	.	.	.	.	.	.	.	.	.	.	.
8r	8Cn/L	.	16cn\	.	16e/	.	16e/	.	8Cn'/	.	8r	.	8e 8cn/	.	8cn\	.	8r	.	8e/	.	8ee'\	.	8ee'\	.
.	.	.	16c\	.	16e/	.	16e/	.	.	.	.	.	.	.	.	.	.	.	.	.	.	.	.	.
!	!	!	!	!	!	!	!	!	!	!	!	!LO:DY:b:rj	!	!	!	!	!	!	!	!	!	!	!	!
8Re\	8AA/J	.	16c\	.	16d/	.	16f#/	.	8AA'/J	.	8D\	f	8f#J 8c/	.	8A\J	.	8d 8D/	.	8f#J 8cn/	.	8ff#'\J	.	8ff#'\J	.
!	!	!	!	!	!	!	!LO:TX:a:t=[segno]	!	!	!	!	!	!	!	!	!	!	!	!	!	!	!	!	!
.	.	.	16c\JJ	.	16d/JJ	.	16f#/JJ	.	.	.	.	.	.	.	.	.	.	.	.	.	.	.	.	.
!	!	!	!	!	!	!	!	!	!	!	!	!	!	!	!	!	!	!	!	!	!	!	!LO:TX:a:t=[segno]	!
*	*	*	*Xtremolo	*	*Xtremolo	*	*Xtremolo	*	*	*	*	*	*	*	*	*	*	*	*	*	*	*	*	*
=23||	=23||	=23||	=23||	=23||	=23||	=23||	=23||	=23||	=23||	=23||	=23||	=23||	=23||	=23||	=23||	=23||	=23||	=23||	=23||	=23||	=23||	=23||	=23||	=23||
*>E	*>E	*	*>E	*	*>E	*	*>E	*	*>E	*	*>E	*	*>E	*	*>E	*	*>E	*	*>E	*	*>E	*	*>E	*
*	*	*	*	*	*	*	*	*	*	*	*	*	*^	*	*	*	*	*	*	*	*	*	*	*
!	!LO:TX:t=P:problem=mixed beam	!	!	!	!	!	!	!LO:DY:b	!	!	!	!	!	!	!	!	!	!	!	!	!	!	!	!	!
!	!	!LO:DY:b:rj	!	!	!	!LO:DY:b:rj	!	!	!	!	!	!	!	!	!	!	!	!	!	!	!	!	!	!	!
8Re\	8GG/L	fp	8B/L	.	8d/L	fp	8g/L	fp	8GG/	.	8D\	.	8gL 8B'>/	8ryy	.	8G\	.	8d 8D/	.	8g 8B/	.	8gg'\L	.	8gg'\L	.
8r	8G\J	.	8B/J	.	8d/J	.	8g/J	.	8r	.	8r	.	8b'>/J	8r	.	8r	.	8r	.	8r	.	8bb'\J	.	8bb'\J	.
*	*tremolo	*	*tremolo	*	*tremolo	*	*	*	*	*	*	*	*	*	*	*	*	*	*	*	*	*	*	*	*
!	!	!LO:DY:b	!	!	!	!LO:DY:b	!	!LO:DY:b	!	!	!	!	!	!	!	!	!	!	!	!	!	!	!	!	!
4r	8D\L	sfp	8c/L	.	8d/L	sfp	8a/L	sfp	4r	.	4r	.	4.d/	4r	.	4r	.	4r	.	4r	.	4.dd\	.	4.dd\	.
.	8D\	.	8c/	.	8d/	.	8a/	.	.	.	.	.	.	.	.	.	.	.	.	.	.	.	.	.	.
4r	8D\	.	8c/	.	8d/	.	8a/	.	4r	.	4r	.	.	4r	.	4r	.	4r	.	4r	.	.	.	.	.
.	8D\J	.	8c/J	.	8d/J	.	8a/J	.	.	.	.	.	(>16e/LL	.	.	.	.	.	.	.	.	(>16ee\LL	.	(>16ee\LL	.
.	.	.	.	.	.	.	.	.	.	.	.	.	16f#/JJ)	.	.	.	.	.	.	.	.	16ff#\JJ)	.	16ff#\JJ)	.
*	*Xtremolo	*	*Xtremolo	*	*Xtremolo	*	*	*	*	*	*	*	*	*	*	*	*	*	*	*	*	*	*	*	*
=24	=24	=24	=24	=24	=24	=24	=24	=24	=24	=24	=24	=24	=24	=24	=24	=24	=24	=24	=24	=24	=24	=24	=24	=24	=24
*	*	*	*rep	*	*rep	*	*	*	*	*	*	*	*	*	*	*	*	*	*	*	*	*	*	*	*
!	!	!	!	!	!	!LO:DY:b:rj	!	!	!	!	!	!	!	!	!	!	!	!	!	!	!	!	!	!	!
2.r	8G\L	.	8B/L	.	8d/L	fp	8g/L	.	2.r	.	2.r	.	(>16g/LL	2.rf	.	2.r	.	2.r	.	2.r	.	(>16gg\LL	.	(>16gg\LL	.
.	.	.	.	.	.	.	.	.	.	.	.	.	16f#/	.	.	.	.	.	.	.	.	16ff#\	.	16ff#\	.
.	8G\J	.	8B/J	.	8d/J	.	8g/J	.	.	.	.	.	16g/	.	.	.	.	.	.	.	.	16gg\	.	16gg\	.
.	.	.	.	.	.	.	.	.	.	.	.	.	16b/JJ)	.	.	.	.	.	.	.	.	16bb\JJ)	.	16bb\JJ)	.
*	*tremolo	*	*tremolo	*	*tremolo	*	*	*	*	*	*	*	*	*	*	*	*	*	*	*	*	*	*	*	*
!	!	!	!	!	!	!	!	!LO:DY:b	!	!	!	!	!LO:N:vis=4..	!	!	!	!	!	!	!	!	!	!	!	!
.	8D\L	sfp	8c/L	.	8d/L	sfp	8a/L	sfp	.	.	.	.	4.d/	.	.	.	.	.	.	.	.	4.dd\	.	4.dd\	.
.	8D\	.	8c/	.	8d/	.	8a/	.	.	.	.	.	.	.	.	.	.	.	.	.	.	.	.	.	.
.	8D\	.	8c/	.	8d/	.	8a/	.	.	.	.	.	.	.	.	.	.	.	.	.	.	.	.	.	.
.	8D\J	.	8c/J	.	8d/J	.	8a/J	.	.	.	.	.	(>16e/LL	.	.	.	.	.	.	.	.	(>16ee\LL	.	(>16ee\LL	.
.	.	.	.	.	.	.	.	.	.	.	.	.	16f#/JJ)	.	.	.	.	.	.	.	.	16ff#\JJ)	.	16ff#\JJ)	.
*	*Xtremolo	*	*Xtremolo	*	*Xtremolo	*	*	*	*	*	*	*	*	*	*	*	*	*	*	*	*	*	*	*	*
*	*	*	*Xrep	*	*Xrep	*	*	*	*	*	*	*	*	*	*	*	*	*	*	*	*	*	*	*	*
!!LO:PB:g=original
=25	=25	=25	=25	=25	=25	=25	=25	=25	=25	=25	=25	=25	=25	=25	=25	=25	=25	=25	=25	=25	=25	=25	=25	=25	=25
*	*	*	*	*	*	*	*	*	*	*	*	*	*	*	*	*	*	*	*	*^	*	*	*	*	*
*	*tremolo	*	*tremolo	*	*tremolo	*	*tremolo	*	*	*	*	*	*	*	*	*	*	*	*	*	*	*	*	*	*	*
!LO:TX:a:t=P:problem=od tego miejsca partia tołombasu znika	!	!	!	!	!	!	!	!	!	!	!	!	!LO:TX:b:t=2o.	!	!LO:DY:b	!	!	!	!LO:DY:b:rj	!	!	!	!	!	!	!
2.ryy	8G\L	.	8B/L	.	8d/L	.	8g/L	.	2.r	.	2.r	.	8g'/L	2.d\	p	8G'\L	.	2.g 2.B\	p	8g'>/L	2.r	.	8gg\	.	8gg'\L	.
.	8G\	.	8B/	.	8d/	.	8g/	.	.	.	.	.	8b'/J	.	.	8B'\J	.	.	.	8b'>/J	.	.	8r	.	8bb'\J	.
.	8G\	.	8B/	.	8d/	.	8g/	.	.	.	.	.	(>8ee/L	.	.	(>8e\L	.	.	.	(>8ee/L	.	.	4r	.	(>8eee\L	.
.	8G\	.	8B/	.	8d/	.	8g/	.	.	.	.	.	8dd/J)	.	.	8d\J)	.	.	.	8dd/J)	.	.	.	.	8ddd\J)	.
.	8G\	.	8B/	.	8d/	.	8g/	.	.	.	.	.	8g'/L	.	.	8G'\L	.	.	.	8g/L	.	.	4r	.	8gg'\L	.
.	8G\J	.	8B/J	.	8d/J	.	8g/J	.	.	.	.	.	8b'/J	.	.	8B'\J	.	.	.	8b/J	.	.	.	.	8bb'\J	.
=26	=26	=26	=26	=26	=26	=26	=26	=26	=26	=26	=26	=26	=26	=26	=26	=26	=26	=26	=26	=26	=26	=26	=26	=26	=26	=26
2.ryy	8D\L	.	8A/L	.	8d/L	.	8f#/L	.	4r	.	4r	.	4r	2d\	.	(>16A\LL	.	[>2f# [>2A\	.	16a/LL	4r	.	4r	.	(>16aa\LL	.
.	.	.	.	.	.	.	.	.	.	.	.	.	.	.	.	16B\	.	.	.	16b/	.	.	.	.	16bb\	.
.	8D\	.	8A/	.	8d/	.	8f#/	.	.	.	.	.	.	.	.	16A\	.	.	.	16a/	.	.	.	.	16aa\	.
.	.	.	.	.	.	.	.	.	.	.	.	.	.	.	.	16G\JJ	.	.	.	16g/JJ	.	.	.	.	16gg\JJ	.
.	8D\	.	8A/	.	8d/	.	8f#/	.	4r	.	4r	.	4r	.	.	16F#\LL	.	.	.	16f#/LL	4r	.	4r	.	16ff#\LL	.
.	.	.	.	.	.	.	.	.	.	.	.	.	.	.	.	16G\	.	.	.	16g/	.	.	.	.	16gg\	.
.	8D\J	.	8A/J	.	8d/J	.	8f#/J	.	.	.	.	.	.	.	.	16F#\	.	.	.	16f#/	.	.	.	.	16ff#\	.
.	.	.	.	.	.	.	.	.	.	.	.	.	.	.	.	16E\JJ)	.	.	.	16e/JJ	.	.	.	.	16ee\JJ)	.
*	*Xtremolo	*	*Xtremolo	*	*Xtremolo	*	*Xtremolo	*	*	*	*	*	*	*	*	*	*	*	*	*	*	*	*	*	*	*
.	8D\	.	8A/	.	8d/L	.	8f#/	.	8r	.	8r	.	8r	8d\	.	8D\	.	8f#] 8A\]	.	8d/L	8r	.	8r	.	8dd\L	.
.	.	.	.	.	.	.	(<8qcc#X^>/	.	.	.	.	.	.	.	.	(<8qc#X/	.	.	.	(<8qcc#X/	.	.	.	.	(>8qccc#X/	.
!	!	!LO:DY:b	!	!LO:DY:b	!	!LO:DY:b	!	!LO:DY:b	!	!	!	!LO:DY:b	!	!	!LO:DY:b	!	!LO:DY:b	!	!	!	!	!LO:DY:b	!	!	!	!
.	8d 8D\	sf	8d\	sf	8f#J 8A/	sf	8dd\)	sf	8D\	.	8D\	sf	8dd 8d/	8ryy	sf	8d\)	sf	8f# 8A\	.	8ddJ 8f#/)	8ryy	sf	8ff#\	.	8ddd\J)	.
*	*	*	*	*	*	*	*	*	*	*	*	*	*v	*v	*	*	*	*	*	*	*	*	*	*	*	*
=27	=27	=27	=27	=27	=27	=27	=27	=27	=27	=27	=27	=27	=27	=27	=27	=27	=27	=27	=27	=27	=27	=27	=27	=27	=27
!	!	!LO:DY:b:rj	!	!	!	!LO:DY:b:rj	!	!LO:DY:b:rj	!	!LO:DY:b:rj	!	!	!LO:TX:b:t=due	!	!	!	!	!	!	!	!	!	!	!	!
2.ryy	8G\L	f	8dL 8G\	.	8gL 8B/	f	8ggL 8b 8d'\	f	4G\	f	4r	.	8g/L	.	8G'\L	.	4g 4B\	.	4b 4g/	4ryy	.	8gg'\L	.	2.ryy	.
.	8G\J	.	8dJ 8G\	.	8gJ 8B/	.	8bb'\J	.	.	.	.	.	8b/J	.	8B'\J	.	.	.	.	.	.	8bb'\J	.	.	.
*	*tremolo	*	*tremolo	*	*tremolo	*	*	*	*	*	*	*	*	*	*	*	*	*	*	*	*	*	*	*	*
.	8D^<\L	.	8dL 8D^</	.	8aL 8c^</	.	(>4.dd'\	.	2D^<\	.	4D\	.	4.d/	.	4.D\	.	2d 2D/	.	2cc/	2a\	.	4.dd\	.	.	.
.	8D\	.	8d 8D/	.	8a 8c/	.	.	.	.	.	.	.	.	.	.	.	.	.	.	.	.	.	.	.	.
.	8D\	.	8d 8D/	.	8a 8c/	.	.	.	.	.	4r	.	.	.	.	.	.	.	.	.	.	.	.	.	.
.	8D\J	.	8dJ 8D/	.	8aJ 8c/	.	16ee\LL	.	.	.	.	.	16e/LL	.	(>16E\LL	.	.	.	.	.	.	(>16ee\LL	.	.	.
.	.	.	.	.	.	.	16ff#\JJ)	.	.	.	.	.	16f#/JJ	.	16F#\JJ)	.	.	.	.	.	.	16ff#\JJ)	.	.	.
*	*Xtremolo	*	*Xtremolo	*	*Xtremolo	*	*	*	*	*	*	*	*	*	*	*	*	*	*	*	*	*	*	*	*
=28	=28	=28	=28	=28	=28	=28	=28	=28	=28	=28	=28	=28	=28	=28	=28	=28	=28	=28	=28	=28	=28	=28	=28	=28	=28
*	*rep	*	*rep	*	*rep	*	*	*	*	*	*	*	*	*	*	*	*	*	*	*	*	*	*	*	*
2.ryy	8G\L	.	8dL 8G\	.	8gL 8B/	.	(>16gg\LL	.	4G\	.	4r	.	(<16g/LL	.	(>16G\LL	.	4d 4D/	.	4b/	4g\	.	(>16gg\LL	.	2.ryy	.
.	.	.	.	.	.	.	16ff#\	.	.	.	.	.	16f#/	.	16F#\	.	.	.	.	.	.	16ff#\	.	.	.
.	8G\J	.	8dJ 8G\	.	8gJ 8B/	.	16gg\	.	.	.	.	.	16g/	.	16G\	.	.	.	.	.	.	16gg\	.	.	.
.	.	.	.	.	.	.	16bb\JJ)	.	.	.	.	.	16b/JJ)	.	16B\JJ)	.	.	.	.	.	.	16bb\JJ)	.	.	.
*	*tremolo	*	*tremolo	*	*tremolo	*	*	*	*	*	*	*	*	*	*	*	*	*	*	*	*	*	*	*	*
.	8D^<\L	.	8dL 8D^</	.	8aL 8c^</	.	4.dd\	.	2D^<\	.	4D\	.	4.d/	.	4.D\	.	2d 2D/	.	2cc/	2a\	.	4.dd\	.	.	.
.	8D\	.	8d 8D/	.	8a 8c/	.	.	.	.	.	.	.	.	.	.	.	.	.	.	.	.	.	.	.	.
.	8D\	.	8d 8D/	.	8a 8c/	.	.	.	.	.	4r	.	.	.	.	.	.	.	.	.	.	.	.	.	.
.	8D\J	.	8dJ 8D/	.	8aJ 8c/	.	(>16ee\LL	.	.	.	.	.	(<16e/LL	.	(>16E\LL	.	.	.	.	.	.	(>16ee\LL	.	.	.
.	.	.	.	.	.	.	16ff#\JJ)	.	.	.	.	.	16f#/JJ)	.	16F#\JJ)	.	.	.	.	.	.	16ff#\JJ)	.	.	.
*	*Xtremolo	*	*	*	*Xtremolo	*	*	*	*	*	*	*	*	*	*	*	*	*	*	*	*	*	*	*	*
*	*Xrep	*	*Xrep	*	*Xrep	*	*	*	*	*	*	*	*	*	*	*	*	*	*	*	*	*	*	*	*
!!LO:PB:g=original
=29	=29	=29	=29	=29	=29	=29	=29	=29	=29	=29	=29	=29	=29	=29	=29	=29	=29	=29	=29	=29	=29	=29	=29	=29	=29
!	!	!LO:DY:b:rj	!	!LO:DY:b	!	!LO:DY:b:rj	!	!	!LO:TX:a:t=P:problem=pauza dopisana ołówkiem	!	!LO:TX:a:t=P:problem=pauza dopisana ołówkiem	!	!LO:TX:a:t=P:problem=pauza dopisana ołówkiem	!	!LO:TX:a:t=P:problem=pauza dopisana ołówkiem	!	!LO:TX:a:t=P:problem=pauza dopisana ołówkiem	!	!	!	!	!LO:TX:a:t=P:problem=pauza dopisana ołówkiem	!	!	!
2.ryy	8E\L	p	8e\L	p	8gL 8B/	p	8gg'\L	p	2.rZ	.	2.rZ	.	2.rZ	.	2.rZ	.	2.rZ	.	8g'/L	2.r	.	2.rZ	.	8gg'\L	.
.	8E\J	.	8e\J	.	8gJ 8B/	.	8bb'\J	.	.	.	.	.	.	.	.	.	.	.	8b'/J	.	.	.	.	8bb'\J	.
*	*	*	*tremolo	*	*tremolo	*	*	*	*	*	*	*	*	*	*	*	*	*	*	*	*	*	*	*	*
.	8C/L	.	8e\L	.	8aL 8c/	.	4.ee'\	.	.	.	.	.	.	.	.	.	.	.	4.e/	.	.	.	.	4.ee\	.
.	8C/	.	8e\	.	8a 8c/	.	.	.	.	.	.	.	.	.	.	.	.	.	.	.	.	.	.	.	.
.	8AA/	.	8e\	.	8a 8c/	.	.	.	.	.	.	.	.	.	.	.	.	.	.	.	.	.	.	.	.
.	8AA/J	.	8e\J	.	8aJ 8c/	.	8ccc'\	.	.	.	.	.	.	.	.	.	.	.	8cc/	.	.	.	.	8ccc\	.
*	*	*	*Xtremolo	*	*Xtremolo	*	*	*	*	*	*	*	*	*	*	*	*	*	*	*	*	*	*	*	*
*	*	*	*	*	*	*	*	*	*	*	*	*	*	*	*	*	*	*	*v	*v	*	*	*	*	*
=30	=30	=30	=30	=30	=30	=30	=30	=30	=30	=30	=30	=30	=30	=30	=30	=30	=30	=30	=30	=30	=30	=30	=30	=30
!	!	!	!	!	!	!	!	!	!LO:TX:a:t=P:problem=pauza dopisana ołówkiem	!	!LO:TX:a:t=P:problem=pauza dopisana ołówkiem	!	!LO:TX:a:t=P:problem=pauza dopisana ołówkiem	!	!LO:TX:a:t=P:problem=pauza dopisana ołówkiem	!	!LO:TX:a:t=P:problem=pauza dopisana ołówkiem	!	!	!	!LO:TX:a:t=P:problem=pauza dopisana ołówkiem	!	!	!
2.ryy	8D\L	.	8d\L	.	8gL 8B/	.	(>16bb\LL	.	2.rZ	.	2.rZ	.	2.rZ	.	2.rZ	.	2.rZ	.	(>16b/LL	.	2.rZ	.	(>16bb\LL	.
.	.	.	.	.	.	.	16gg\JJ)	.	.	.	.	.	.	.	.	.	.	.	16g/JJ)	.	.	.	16gg\JJ)	.
.	8D\J	.	8d\J	.	8f#J 8c/	.	(>16ff#\LL	.	.	.	.	.	.	.	.	.	.	.	(>16f#/LL	.	.	.	(>16ff#\LL	.
.	.	.	.	.	.	.	16aa\JJ)	.	.	.	.	.	.	.	.	.	.	.	16a/JJ)	.	.	.	16aa\JJ)	.
.	8r	.	(>4d\	.	4f# 4c/	.	(>4aa\	.	.	.	.	.	.	.	.	.	.	.	(>4a/	.	.	.	(>4aa\	.
.	8D\L	.	.	.	.	.	.	.	.	.	.	.	.	.	.	.	.	.	.	.	.	.	.	.
.	8G\J	.	8d 8G/)	.	8g 8B/	.	8gg\)	.	.	.	.	.	.	.	.	.	.	.	8g/)	.	.	.	8gg\)	.
.	8r	.	8r	.	8r	.	8r	.	.	.	.	.	.	.	.	.	.	.	8r	.	.	.	8r	.
!LO:TX:a:t=P:problem="fine" dopisane ołówkiem	!	!	!	!	!	!	!	!	!	!	!	!	!	!	!	!	!	!	!	!	!	!	!	!
!LO:TX:b:i:t=fine:color=grey	!	!	!	!	!	!	!	!	!	!	!	!	!	!	!	!	!	!	!	!	!	!	!	!
=31:|!	=31:|!	=31:|!	=31:|!	=31:|!	=31:|!	=31:|!	=31:|!	=31:|!	=31:|!	=31:|!	=31:|!	=31:|!	=31:|!	=31:|!	=31:|!	=31:|!	=31:|!	=31:|!	=31:|!	=31:|!	=31:|!	=31:|!	=31:|!;>	=31:|!
*>F	*>F	*	*>F	*	*>F	*	*>F	*	*>F	*	*>F	*	*>F	*	*>F	*	*>F	*	*>F	*	*>F	*	*>F	*
*	*	*	*	*	*	*	*	*	*	*	*	*	*	*	*	*	*^	*	*^	*	*	*	*	*
!LO:TX:a:t=P:problem=od tego miejsca partia tołombasu powraca	!	!LO:DY:b:rj	!	!LO:DY:b:rj	!	!LO:DY:b:rj	!	!	!	!LO:DY:b:rj	!	!	!	!LO:DY:b:rj	!	!LO:DY:b:rj	!	!	!LO:DY:b:rj	!	!	!LO:DY:b:rj	!	!	!	!
4Re/	4D\	f	8d\L|	f	8f#'/L	f	2.r	.	8D/	f	8D/	f	8f#L 8d'/	f	8A\	f	8f#/	8d\	f	2.rgg	8f#\	f	2.r	.	2.r	.
.	.	.	(>16f#\L	.	(<16a/L	.	.	.	8r	.	8r	.	(<16aL 16f#/	.	8r	.	8r	8ryy	.	.	8r	.	.	.	.	.
.	.	.	16e#X\JJ	.	16g#X/JJ	.	.	.	.	.	.	.	16g#XJJ 16e#X/)	.	.	.	.	.	.	.	.	.	.	.	.	.
4r	4D\	.	8f#\L)	.	8a'/L)	.	.	.	8r	.	8r	.	8a 8f#/	.	8r	.	8r	8ryy	.	.	8r	.	.	.	.	.
.	.	.	8e#'\	.	8g#'/	.	.	.	8D/L	.	8D/L	.	8r	.	8d'\L	.	8g#XL 8e#X'\	8ryy	.	.	8g#X\L	.	.	.	.	.
4r	4D\	.	8f#'\	.	8a'/	.	.	.	8D/	.	8D/	.	4r	.	8d'\	.	8a 8f#'\	8ryy	.	.	8a\	.	.	.	.	.
.	.	.	8d'\J	.	8f#'/J	.	.	.	8D/J	.	8D/J	.	.	.	8A'\J	.	8f#J 8d'\	8ryy	.	.	8f#\J	.	.	.	.	.
*	*	*	*	*	*	*	*	*	*	*	*	*	*	*	*	*	*v	*v	*	*	*	*	*	*	*	*
=32	=32	=32	=32	=32	=32	=32	=32	=32	=32	=32	=32	=32	=32	=32	=32	=32	=32	=32	=32	=32	=32	=32	=32	=32	=32
4Re/	4AA/	.	8e\L|	.	8gn/L|	.	4r	.	8AA/	.	8AA/	.	8r	.	8c#X'\	.	8e 8A/	.	4rgg	8gn\	.	4r	.	4r	.
.	.	.	(>16e\L	.	(<16g/L	.	.	.	8r	.	8r	.	(<16gLL 16e/	.	8r	.	8r	.	.	8r	.	.	.	.	.
.	.	.	16d#X\JJ	.	16f#/JJ	.	.	.	.	.	.	.	16f#JJ 16d#X/	.	.	.	.	.	.	.	.	.	.	.	.
4r	4AA/	.	8e\L)	.	8g/L)	.	4r	.	8r	.	8r	.	8g 8e/)	.	8r	.	8r	.	4rgg	8r	.	4r	.	4r	.
.	.	.	8d#'\	.	8f#'/	.	.	.	8AA/L	.	8AA/L	.	8r	.	8A'\L	.	8f#L 8d#X\	.	.	8f#\L	.	.	.	.	.
4r	4AA/	.	8e'\	.	8g'/	.	8r	.	8AA/	.	8AA/	.	4r	.	8A'\	.	8g 8e\	.	8rgg	8g\	.	8r	.	8r	.
.	.	.	8c'\J	.	8e'/J	.	8a/	.	8AA/J	.	8AA/J	.	.	.	8c#'\J	.	8eJ 8A\	.	8a/	8e\J	.	8a/	.	8aa\	.
!!LO:PB:g=original
=33	=33	=33	=33	=33	=33	=33	=33	=33	=33	=33	=33	=33	=33	=33	=33	=33	=33	=33	=33	=33	=33	=33	=33	=33	=33
*	*^	*	*	*	*	*	*	*	*	*	*	*	*	*	*	*	*	*	*	*	*	*	*	*	*
!	!	!	!LO:DY:b	!	!	!	!	!	!	!	!LO:DY:b:rj	!	!	!	!	!	!	!	!LO:DY:b:rj	!	!	!	!	!	!	!
2.r	(>4.f#/	4D\	mf	8r	.	8r	.	(>4.ff#\	.	2.D\	mf	2.r	.	2.r	.	2.d\	.	2.f# 2.A/	mf	(4.ff#/	2.f#\	.	(>4.ff#\	.	(>4.fff#\	.
!	!	!	!	!	!	!	!LO:DY:b:rj	!	!	!	!	!	!	!	!	!	!	!	!	!	!	!	!	!	!	!
.	.	.	.	8d\	.	8f# 8A/	mf	.	.	.	.	.	.	.	.	.	.	.	.	.	.	.	.	.	.	.
*	*	*	*	*tremolo	*	*tremolo	*	*	*	*	*	*	*	*	*	*	*	*	*	*	*	*	*	*	*	*
.	.	4r	.	8d\L	.	8f#L 8A/	.	.	.	.	.	.	.	.	.	.	.	.	.	.	.	.	.	.	.	.
.	16e/LL	.	.	8d\	.	8f# 8A/	.	16ee\LL	.	.	.	.	.	.	.	.	.	.	.	16ee/LL	.	.	16ee\LL	.	16eee\LL	.
.	16d/JJ	.	.	.	.	.	.	16dd\JJ	.	.	.	.	.	.	.	.	.	.	.	16dd/JJ	.	.	16dd\JJ	.	16ddd\JJ	.
!	!	!	!	!	!	!	!	!	!	!	!	!	!	!	!	!	!	!	!	!LO:SIC:v:s=8cc#	!	!	!LO:SIC:v:s=8cc#	!	!LO:SIC:v:s=8ccc#	!
.	8c#X/L)	4r	.	8d\	.	8f# 8A/	.	8cc#X\L)	.	.	.	.	.	.	.	.	.	.	.	8cc/L)	.	.	8cc\L)	.	8ccc\L)	.
.	8d'>/J	.	.	8d\J	.	8f#J 8A/	.	8dd\J|	.	.	.	.	.	.	.	.	.	.	.	8dd'/J	.	.	8dd'\J	.	8ddd'\J	.
=34	=34	=34	=34	=34	=34	=34	=34	=34	=34	=34	=34	=34	=34	=34	=34	=34	=34	=34	=34	=34	=34	=34	=34	=34	=34	=34
2.r	(>16d#X/LL	4AA/	.	8r	.	8r	.	(>16dd#X\LL	.	2.AA/	.	2.r	.	2.r	.	2.c#X\	.	2.e 2.A/	.	(>16dd#X/LL	2.g\	.	(>16dd#X\LL	.	(>16ddd#X\LL	.
.	16e/	.	.	.	.	.	.	16ee\	.	.	.	.	.	.	.	.	.	.	.	16ee/	.	.	16ee\	.	16eee\	.
.	16f#/	.	.	8c#X\	.	8g 8A/	.	16ff#\	.	.	.	.	.	.	.	.	.	.	.	16ff#/	.	.	16ff#\	.	16fff#\	.
.	16e/JJ	.	.	.	.	.	.	16ee\JJ	.	.	.	.	.	.	.	.	.	.	.	16ee/JJ	.	.	16ee\JJ	.	16eee\JJ	.
.	8c#X/L)	4r	.	8c#\L	.	8gL 8A/	.	8cc#X\L)	.	.	.	.	.	.	.	.	.	.	.	8cc#X/L)	.	.	8cc#X\L)	.	8ccc#X\L)	.
.	8A'>/	.	.	8c#\	.	8g 8A/	.	8a'\	.	.	.	.	.	.	.	.	.	.	.	8a'/	.	.	8a'\	.	8aa\|	.
.	(>8qc#/	.	.	.	.	.	.	(<8qcc#/	.	.	.	.	.	.	.	.	.	.	.	(>8qcc#\	.	.	(<8qcc#/	.	(<8qccc#/	.
.	8B/)	4r	.	8c#\	.	8g 8A/	.	8b\)	.	.	.	.	.	.	.	.	.	.	.	8b/)	.	.	8b\)	.	8bb\)	.
.	8A'>/J	.	.	8c#\J	.	8gJ 8A/	.	8a'\J	.	.	.	.	.	.	.	.	.	.	.	8a'/J	.	.	8a'\J	.	8aa\J|	.
*	*	*	*	*	*	*Xtremolo	*	*	*	*	*	*	*	*	*	*	*	*	*	*	*	*	*	*	*	*
*	*v	*v	*	*	*	*	*	*	*	*	*	*	*	*	*	*	*	*	*	*	*	*	*	*	*	*
=35	=35	=35	=35	=35	=35	=35	=35	=35	=35	=35	=35	=35	=35	=35	=35	=35	=35	=35	=35	=35	=35	=35	=35	=35	=35
!	!	!LO:DY:b:rj	!	!	!	!LO:DY:b:rj	!	!	!	!	!	!	!	!	!	!	!	!	!	!	!	!	!	!	!
4Re/	4D\	f	8d\L|	.	8f#'/L	f	2.r	.	8D\	.	8D/	.	8r	.	8d\	.	8f# 8A/	.	2.rgg	8f#\	.	2.r	.	2.r	.
.	.	.	(>16f#\L	.	(<16a/L	.	.	.	8r	.	8r	.	(<16aLL 16f#/	.	8r	.	8r	.	.	8r	.	.	.	.	.
.	.	.	16e#X\JJ	.	16g#X/J	.	.	.	.	.	.	.	16g#XJJ 16e#X/	.	.	.	.	.	.	.	.	.	.	.	.
4r	4r	.	8f#\L)	.	8a/)	.	.	.	8r	.	8r	.	8a 8f#/)	.	8r	.	8r	.	.	8r	.	.	.	.	.
.	.	.	8e#'\	.	8g#'/	.	.	.	8D\L	.	8D/L	.	8r	.	8d\L	.	8g#XL 8e#X\	.	.	8g#X\L	.	.	.	.	.
4r	4r	.	8f#'\	.	8a'/	.	.	.	8D\	.	8D/	.	4r	.	8d\	.	8a 8f#\	.	.	8a\	.	.	.	.	.
.	.	.	8d'\J	.	8f#'/J	.	.	.	8D\J	.	8D/J	.	.	.	8A\J	.	8f#J 8d\	.	.	8f#\J	.	.	.	.	.
=36	=36	=36	=36	=36	=36	=36	=36	=36	=36	=36	=36	=36	=36	=36	=36	=36	=36	=36	=36	=36	=36	=36	=36	=36	=36
*	*^	*	*	*	*	*	*	*	*	*	*	*	*	*	*	*	*	*	*	*	*	*	*	*	*
4Re/	4AA/	4ryy	.	8c#X\L	.	8e/L	.	4r	.	8AA/	.	4AA/	.	8r	.	8c#X\	.	8e 8A/	.	4rgg	8gn\	.	4r	.	4r	.
.	.	.	.	16e\L	.	16gn/L	.	.	.	8r	.	.	.	(<16gLL 16e/	.	8r	.	8r	.	.	8r	.	.	.	.	.
.	.	.	.	16d#X\JJ	.	16f#/JJ	.	.	.	.	.	.	.	16f#JJ 16d#X/	.	.	.	.	.	.	.	.	.	.	.	.
4r	4r	4ryy	.	8e\L	.	8g/L	.	4r	.	8r	.	4r	.	8g 8e/)	.	8r	.	8r	.	4rgg	8r	.	4r	.	4r	.
.	.	.	.	8d#\	.	8f#/	.	.	.	8AA/L	.	.	.	8r	.	8A\L	.	8f#L 8d#X\	.	.	8f#\L	.	.	.	.	.
4r	8r	8ryy	.	8e\	.	8g/	.	8r	.	8AA/	.	4r	.	4r	.	8A\	.	8g 8e\	.	8rgg	8g\	.	8r	.	8r	.
.	8F#/	8AA#X\	.	8c#\J	.	8e/J	.	8f#/	.	8AA#X/J	.	.	.	.	.	8A#X\J	.	8eJ 8c#\	.	8f#/	8e\J	.	8f#/	.	8ff#\	.
!!LO:PB:g=original
=37	=37	=37	=37	=37	=37	=37	=37	=37	=37	=37	=37	=37	=37	=37	=37	=37	=37	=37	=37	=37	=37	=37	=37	=37	=37	=37
*	*	*	*	*	*	*	*	*	*	*	*	*	*	*	*	*	*	*^	*	*	*	*	*	*	*	*
!	!	!	!	!	!	!	!	!	!	!	!LO:DY:a:rj	!	!	!	!	!	!	!	!	!LO:DY:b:rj	!	!	!	!	!	!	!
2.r	4.d/	4BB/	.	8r	.	8r	.	(>4.dd\	.	2.BB/	mf	2.r	.	2.r	.	(>2.B\	.	[>2.f#/	(>2.d\	mf	(>4.dd/	2.re	.	(>4.dd\	.	(>4.ddd\	.
.	.	.	.	8B 8F#/	.	8d/	.	.	.	.	.	.	.	.	.	.	.	.	.	.	.	.	.	.	.	.	.
*	*	*	*	*	*	*tremolo	*	*	*	*	*	*	*	*	*	*	*	*	*	*	*	*	*	*	*	*	*
.	.	4r	.	8BL 8F#/	.	8d/L	.	.	.	.	.	.	.	.	.	.	.	.	.	.	.	.	.	.	.	.	.
.	16c#X/LL	.	.	8B 8F#/	.	8d/	.	16cc#X\LL	.	.	.	.	.	.	.	.	.	.	.	.	16cc#X/LL	.	.	16cc#X\LL	.	16ccc#X\LL	.
.	16B/JJ	.	.	.	.	.	.	16b\JJ	.	.	.	.	.	.	.	.	.	.	.	.	16b/JJ	.	.	16b\JJ	.	16bb\JJ	.
.	8A#X/L	4r	.	8B 8F#/	.	8d/	.	8a#X\L)	.	.	.	.	.	.	.	.	.	.	.	.	8a#X/L)	.	.	8a#X\L)	.	8aa#X\L)	.
.	8B/J	.	.	8BJ 8F#/	.	8d/J	.	8b'\J	.	.	.	.	.	.	.	.	.	.	.	.	8b'/J	.	.	8b'\J	.	8bb'\J	.
=38	=38	=38	=38	=38	=38	=38	=38	=38	=38	=38	=38	=38	=38	=38	=38	=38	=38	=38	=38	=38	=38	=38	=38	=38	=38	=38	=38
2.r	(>16B#X/LL	4F#\	.	8r	.	8r	.	(>16b#X\LL	.	2.F#\	.	2.r	.	2.r	.	2.A#X\)	.	2.f#/]	2.c#\)	.	(>16b#X/LL	2.r	.	16b#X\LL	.	(>16bb#X\LL	.
.	16c#X/	.	.	.	.	.	.	16cc#X\	.	.	.	.	.	.	.	.	.	.	.	.	16cc#X/	.	.	16cc#X\	.	16ccc#X\	.
.	16d/	.	.	8A#X 8F#/	.	8c#X/	.	16dd\	.	.	.	.	.	.	.	.	.	.	.	.	16dd/	.	.	16dd\	.	16ddd\	.
.	16c#/JJ	.	.	.	.	.	.	16cc#\JJ	.	.	.	.	.	.	.	.	.	.	.	.	16cc#/JJ	.	.	16cc#\JJ	.	16ccc#\JJ	.
.	8A#X/)	4rFF	.	8A#L 8F#/	.	8c#/L	.	8a#X/L)	.	.	.	.	.	.	.	.	.	.	.	.	8a#X/L)	.	.	8a#X/	.	8aa#X\L)	.
.	8rc	.	.	8A# 8F#/	.	8c#/	.	8f#'/J	.	.	.	.	.	.	.	.	.	.	.	.	8f#'/J	.	.	8r	.	8ff#'\J	.
.	.	.	.	.	.	.	.	(<8qan/	.	.	.	.	.	.	.	.	.	.	.	.	(>8qan/	.	.	.	.	(<8qaan/	.
.	4rc	4rFF	.	8A# 8F#/	.	8c#/	.	8gn/L)	.	.	.	.	.	.	.	.	.	.	.	.	8g/L)	.	.	4r	.	8ggn\L)	.
.	.	.	.	8A#J 8F#/	.	8c#/J	.	8f#'/J	.	.	.	.	.	.	.	.	.	.	.	.	8f#'/J	.	.	.	.	8ff#'\J	.
*	*	*	*	*Xtremolo	*	*Xtremolo	*	*	*	*	*	*	*	*	*	*	*	*	*	*	*	*	*	*	*	*	*
*	*v	*v	*	*	*	*	*	*	*	*	*	*	*	*	*	*	*	*	*	*	*v	*v	*	*	*	*	*
=39	=39	=39	=39	=39	=39	=39	=39	=39	=39	=39	=39	=39	=39	=39	=39	=39	=39	=39	=39	=39	=39	=39	=39	=39	=39
!	!	!	!	!	!	!	!	!	!	!LO:DY:b:rj	!	!	!	!LO:DY:b:rj	!	!	!	!	!LO:DY:b:rj	!	!	!	!LO:DY:b:rj	!	!
2.r	8E'/L	.	8B'/L	.	8e'/L	.	8g'/L	.	8E/L|>	f	2.r	.	8gL 8e'/	f	8B\	.	8g/	8e\	f	2.r	.	8gg'\L	f	2.r	.
.	(<16E/L	.	8B'/J	.	(<16e/L	.	(<16g/L	.	(>16E/L	.	.	.	(<16gL 16e/	.	8r	.	8r	8ryy	.	.	.	(>16gg\L	.	.	.
.	16BB/JJ)	.	.	.	16d#X/JJ	.	16f#/JJ	.	16BB/JJ	.	.	.	16f#JJ 16d#X/	.	.	.	.	.	.	.	.	16ff#\JJ	.	.	.
.	8E\L	.	8B'/L	.	8e/L)	.	8g/L)	.	8E\)	.	.	.	8g 8e/)	.	(>8E\L|	.	8r	8ryy	.	.	.	8gg\L)	.	.	.
!	!	!LO:DY:b	!	!LO:DY:b	!	!LO:DY:b	!	!LO:DY:b	!	!	!	!	!	!	!	!LO:DY:b	!	!	!LO:DY:b	!	!	!	!	!	!
.	(>8D\	sf	(<8B/	sf	8e/	sf	(<8g/T	sf	8r	.	.	.	8r	.	(>8D\)	sf	8e/L	8e\L	sf	.	.	(>8ggT\	.	.	.
.	8C#X\)	.	8A/	.	8e/	.	8a'</)	.	4r	.	.	.	4r	.	8C#X'\)	.	8e/	8e\	.	.	.	8aa\)	.	.	.
.	8C#\J|	.	8A'/J)	.	8e/J	.	8g'/J	.	.	.	.	.	.	.	8C#'\J	.	8e/J	8e\J	.	.	.	8gg'\J	.	.	.
=40	=40	=40	=40	=40	=40	=40	=40	=40	=40	=40	=40	=40	=40	=40	=40	=40	=40	=40	=40	=40	=40	=40	=40	=40	=40
*	*	*	*	*	*	*	*	*	*	*	*	*	*^	*	*	*	*	*	*	*	*	*	*	*	*
*	*	*	*	*	*tremolo	*	*	*	*	*	*	*	*	*	*	*	*	*	*	*	*	*	*	*	*	*
4Re\	8D'\L	.	8A'/L	.	8d/L	.	8f#'/L	.	8D\	.	8r	.	8r	2.rf	.	8D'\L	.	2.d/	2.d\	.	8r	.	8ff#\	.	8r	.
.	8F#'\	.	8d'/J	.	8d/	.	8a'/	.	8r	.	32D\LLL	.	8a/	.	.	8F#'\J	.	.	.	.	8a/	.	8r	.	8aa\	.
.	.	.	.	.	.	.	.	.	.	.	32D\	.	.	.	.	.	.	.	.	.	.	.	.	.	.	.
.	.	.	.	.	.	.	.	.	.	.	32D\	.	.	.	.	.	.	.	.	.	.	.	.	.	.	.
.	.	.	.	.	.	.	.	.	.	.	32D\JJ	.	.	.	.	.	.	.	.	.	.	.	.	.	.	.
*	*	*	*tremolo	*	*	*	*	*	*	*	*	*	*	*	*	*	*	*	*	*	*	*	*	*	*	*
4r	(>8B\	.	8d\L	.	8d/	.	(<8dd/	.	4r	.	8D\J	.	(>8dd/L	.	.	(>8B\L	.	.	.	.	(>8dd/L	.	4r	.	(>8ddd\L	.
!	!	!	!	!	!	!	!LO:TX:t=P:problem=♯ dopisany ołówkiem	!	!	!	!	!	!	!	!	!	!	!	!	!	!	!	!	!	!	!
.	8A\J)	.	8d\	.	8d/	.	8cc/J)	.	.	.	8r	.	8cc#X/)	.	.	8A\)	.	.	.	.	8cc#X/)	.	.	.	8ccc#X\)	.
4r	8G'\L	.	8d\	.	8d/	.	8b'/L	.	4r	.	4r	.	8b'>/	.	.	8G'\	.	.	.	.	8b'>/	.	4r	.	8bb'\	.
.	8F#'\J	.	8d\J	.	8d/J	.	8a'/J	.	.	.	.	.	8a'>/J	.	.	8F#'\J	.	.	.	.	8a'>/J	.	.	.	8aa'\J	.
*	*	*	*Xtremolo	*	*Xtremolo	*	*	*	*	*	*	*	*	*	*	*	*	*	*	*	*	*	*	*	*	*
*	*	*	*	*	*	*	*	*	*	*	*	*	*v	*v	*	*	*	*	*	*	*	*	*	*	*	*
!!LO:PB:g=original
=41	=41	=41	=41	=41	=41	=41	=41	=41	=41	=41	=41	=41	=41	=41	=41	=41	=41	=41	=41	=41	=41	=41	=41	=41	=41
!	!	!	!	!	!	!	!	!	!	!	!	!	!	!	!LO:TX:a:t=Col b&colon;	!	!	!	!	!	!	!	!	!	!
2.r	8E'\L	.	8B/L	.	8e'/L	.	8g'/L	.	8E'/L	.	2.r	.	8gL 8e'/	.	8E'\Lyy	.	8e/	8e\	.	2.r	.	8gg'\L	.	2.r	.
.	(>16E\L	.	8B/	.	(<16e/L	.	(<16g/L	.	(<16E/L	.	.	.	(<16gL 16e/	.	(y>16E\Lyy	.	8r	8ryy	.	.	.	(>16gg\L	.	.	.
.	16BB\JJ	.	.	.	16d#X/JJ	.	16f#/JJ	.	16BB/JJ)	.	.	.	16f#JJ 16d#X/	.	16BB\JJyy	.	.	.	.	.	.	16ff#\JJ	.	.	.
.	8E\L)	.	8B/	.	8e/L)	.	8g/L)	.	8E\	.	.	.	8g 8e/)	.	8E\L)yy	.	8r	8ryy	.	.	.	8gg\)	.	.	.
!	!	!	!	!LO:DY:b	!	!LO:DY:b	!	!LO:DY:b	!	!	!	!	!	!	!	!LO:DY:b	!	!	!LO:DY:b	!	!	!	!	!	!
.	(>8D\	sf	(>8B/J	sf	8e/	sf	(<8gT/	sf	8r	.	.	.	8r	.	(y>8D\yy	sf	8e/L	8e\L	sf	.	.	(>8gg^<T\L	.	.	.
.	8C#X\)	.	8A/L)	.	8e/	.	8a/)	.	4r	.	.	.	4r	.	8C#X\)yy	.	8e/	8e\	.	.	.	8aa\)	.	.	.
.	8C#'\J	.	8A'>/J	.	8d#/J	.	8g'/J	.	.	.	.	.	.	.	8C#'\Jyy	.	8e/J	8e\J	.	.	.	8gg'\J	.	.	.
=42	=42	=42	=42	=42	=42	=42	=42	=42	=42	=42	=42	=42	=42	=42	=42	=42	=42	=42	=42	=42	=42	=42	=42	=42	=42
*	*	*	*	*	*	*	*	*	*	*	*	*	*^	*	*	*	*	*	*	*^	*	*	*	*	*
4Re\	8D'\L	.	8A/L	.	8d/L	.	8f#'/L	.	8D\	.	8r	.	8rff	8rd	.	8D'\Lyy	.	4.f#/	4.d\	.	8r	8ryy	.	8ff#\	.	8r	.
.	8F#'\J	.	8d/J	.	8a/J	.	8dd'/J	.	8r	.	32D\LLL	.	8dd/	8a\	.	8F#'\Jyy	.	.	.	.	8dd/	8a\	.	8r	.	8ddd\|	.
.	.	.	.	.	.	.	.	.	.	.	32D\	.	.	.	.	.	.	.	.	.	.	.	.	.	.	.	.
.	.	.	.	.	.	.	.	.	.	.	32D\	.	.	.	.	.	.	.	.	.	.	.	.	.	.	.	.
.	.	.	.	.	.	.	.	.	.	.	32D\JJ	.	.	.	.	.	.	.	.	.	.	.	.	.	.	.	.
4r	(>8d\L	.	8d\L|	.	(<8a/L	.	(>8ff#\L	.	4r	.	8D\J	.	(>8ff#/L	8a\L	.	(y>8d\Lyy	.	.	.	.	(>8ff#/L	8a\L	.	4r	.	(>8fff#\L	.
.	8c#X\J)	.	8f#\	.	8a#X/J)	.	8ee\J)	.	.	.	8r	.	8ee/)	8a#X\	.	8c#X\J)yy	.	8f#/L	8f#\L	.	8ee/)	8a#X\	.	.	.	8eee\)	.
4r	8B'\L	.	8f#\	.	8b/L	.	8dd'\L	.	4r	.	4r	.	8dd'>/	8b\	.	8B'\Lyy	.	8f#/	8f#\	.	8dd'/	8b\	.	4r	.	8ddd'\	.
.	8A'\J	.	8f#\J	.	8f#/J	.	8cc#X'\J	.	.	.	.	.	8cc#X'>/J	8f#\J	.	8A'\Jyy	.	8f#/J	8f#\J	.	8cc#X'/J	8f#\J	.	.	.	8ccc#X'\J	.
=43	=43	=43	=43	=43	=43	=43	=43	=43	=43	=43	=43	=43	=43	=43	=43	=43	=43	=43	=43	=43	=43	=43	=43	=43	=43	=43	=43
!	!	!	!	!	!	!	!	!	!	!	!	!	!	!	!	!	!	!	!	!	!LO:TX:a:t=Io. Col Oboe	!	!	!	!	!LO:TX:a:t=Col Vo. Io. 8va	!
2.r	8G\L	.	8.g\L	.	8g/L	.	8b\L	.	8G\L	.	4r	.	8b/L	8g\L	.	8G\Lyy	.	8gL 8e\	8ryy	.	(y>8b/Lyy	8g\L	.	(>8b\L	.	8bb\Lyy	.
.	8E\J	.	.	.	8g/J	.	8ee\J	.	8E\J	.	.	.	8ee/J	8g\J	.	8E\Jyy	.	8gJ 8e\	8ryy	.	8ee/J)yy	8g\J	.	8ee\J)	.	8eee\Jyy	.
.	.	.	16e\Jk	.	.	.	.	.	.	.	.	.	.	.	.	.	.	.	.	.	.	.	.	.	.	.	.
.	4.F#\	.	4.f#\	.	4.f#/	.	4.a\	.	4.F#\	.	4r	.	4.a/	4.f#\	.	4.F#\yy	.	4.f#/	4.d\	.	4.a/yy	4.f#\	.	4.a\	.	4.aa\yy	.
.	.	.	.	.	.	.	.	.	.	.	8r	.	.	.	.	.	.	.	.	.	.	.	.	.	.	.	.
.	8D\	.	8d\	.	8f#/	.	8dd\	.	8D\	.	8D/	.	8dd/	8f#\	.	8D\yy	.	8f#/	8d\	.	8dd/yy	8f#\	.	8dd\	.	8ddd\yy	.
=44	=44	=44	=44	=44	=44	=44	=44	=44	=44	=44	=44	=44	=44	=44	=44	=44	=44	=44	=44	=44	=44	=44	=44	=44	=44	=44	=44
!	!LO:TX:t=P:problem=mixed beam	!	!	!	!	!	!	!	!LO:TX:t=P:problem=mixed beam	!	!	!	!	!	!	!LO:TX:t=P:problem=mixed beam	!	!	!	!	!	!	!	!	!	!	!
4Re/	8AA'/L	.	8e\L	.	8g/L	.	(>16dd\LL	.	8AA'/L	.	8AA/L	.	(>16dd/LL	4g\	.	8AA'/Lyy	.	4e/	4e\	.	(y>16dd/LLyy	4g\	.	(>16dd\LL	.	(y>16ddd\LLyy	.
.	.	.	.	.	.	.	16cc#X\	.	.	.	.	.	16cc#X/	.	.	.	.	.	.	.	16cc#X/yy	.	.	16cc#X\	.	16ccc#X\yy	.
.	8A'\J	.	8e\J	.	8g/J	.	16b\	.	8A'\J	.	8AA/J	.	16b/	.	.	8A'\Jyy	.	.	.	.	16b/yy	.	.	16b\	.	16bb\yy	.
.	.	.	.	.	.	.	16cc#\JJ)	.	.	.	.	.	16cc#/JJ)	.	.	.	.	.	.	.	16cc#/JJ)yy	.	.	16cc#\JJ)	.	16ccc#\JJ)yy	.
4Re/	(>8B\L	.	8d\L	.	8f#/L	.	(>8dd\L	.	(>8B\L	.	4D/	.	(>8dd/L	4f#\	.	(y>8B\Lyy	.	4d/	4d\	.	(y>8dd/Lyy	4f#\	.	(>8dd\L	.	(y>8ddd\Lyy	.
.	8A\J)	.	8d\J	.	8f#/J	.	8ff#\J)	.	8A\J)	.	.	.	8ff#/J)	.	.	8A\J)yy	.	.	.	.	8ff#/J)yy	.	.	8ff#\J)	.	8fff#\J)yy	.
4r	8G\L	.	8e\L	.	8g/L	.	8b\L	.	8G'\L	.	4r	.	8b/L	4g\	.	8G\Lyy	.	4e/	4e\	.	8b'/Lyy	4g\	.	8b'\L	.	8bb\Lyy	.
.	.	.	.	.	.	.	8qdd#	.	.	.	.	.	.	.	.	.	.	.	.	.	(y<8qdd#X/yy	.	.	(<8qdd#X/	.	8qddd#X/yy	.
.	8E\J	.	8e\J	.	8g/J	.	8ee^>\J	.	8E'\J	.	.	.	8ee/J	.	.	8E\Jyy	.	.	.	.	8ee/J)yy	.	.	8ee\J)	.	8eee\Jyy	.
*	*	*	*	*	*	*	*	*	*	*	*	*	*	*	*	*	*	*v	*v	*	*	*	*	*	*	*	*
!!LO:PB:g=original
=45	=45	=45	=45	=45	=45	=45	=45	=45	=45	=45	=45	=45	=45	=45	=45	=45	=45	=45	=45	=45	=45	=45	=45	=45	=45	=45
4Re/	8A\L	.	8d\L	.	8f#L 8A/	.	8a\L	.	8A\L	.	4AA/	.	8a/L	4f#\	.	8A\Lyy	.	2f# 2d\	.	8a'/Lyy	2f#\	.	8a'\L	.	8aa\Lyy	.
.	16F#\L	.	8d\J	.	8f#J 8A/	.	8dd\J	.	16F#\L	.	.	.	8dd/J	.	.	16F#\Lyy	.	.	.	8dd'/Jyy	.	.	8dd'\J	.	8ddd\Jyy	.
.	16D\JJ	.	.	.	.	.	.	.	16D\JJ	.	.	.	.	.	.	16D\JJyy	.	.	.	.	.	.	.	.	.	.
4r	8AA/	.	8r	.	8r	.	4.ff#\	.	8AA/	.	4r	.	4.ff#/	4d\	.	8AA/yy	.	.	.	4.ff#/yy	.	.	4.ff#\	.	4.fff#\yy	.
.	8r	.	8d\	.	8f# 8A/	.	.	.	8r	.	.	.	.	.	.	8ryy	.	.	.	.	.	.	.	.	.	.
4r	8AA/	.	8r	.	8r	.	.	.	8AA/	.	8r	.	.	4c#X\	.	8AA/yy	.	4e 4A/	.	.	4g\	.	.	.	.	.
.	8r	.	8c#X\	.	8g 8A/	.	8ee\	.	8r	.	8AA/	.	8ee/	.	.	8ryy	.	.	.	8ee/yy	.	.	8ee\	.	8eee\yy	.
*	*	*	*	*	*	*	*	*	*	*	*	*	*v	*v	*	*	*	*	*	*v	*v	*	*	*	*	*
=46	=46	=46	=46	=46	=46	=46	=46	=46	=46	=46	=46	=46	=46	=46	=46	=46	=46	=46	=46	=46	=46	=46	=46	=46
8r	8D\	.	8d\	.	8f# 8A/	.	8dd\	.	8D\L	.	8D/L	.	8ddL 8d/	.	8D\L	.	8d 8F#/	.	8dd 8f#/	.	8dd\	.	8ddd\	.
8Re/	8D^<\	.	8a 8d^<\	.	8dd 8f#^</	.	8cccn 8dd^<\	.	8D\J	.	8D/J	.	8ddJ 8d/	.	8d\J	.	8f# 8d\	.	8ff# 8a\	.	8cccn\	.	8r	.
4r	8r	.	8r	.	8r	.	8r	.	8r	.	4r	.	8r	.	8r	.	4r	.	8r	.	8r	.	8r	.
*	*	*	*tremolo	*	*tremolo	*	*tremolo	*	*	*	*	*	*	*	*	*	*	*	*	*	*	*	*	*
.	8D'/L	.	16d\LL	.	16d/LL	.	16d'/LL	.	8D/L	.	.	.	8d/L	.	8d\L	.	.	.	8d/L	.	8dd\L	.	8dd'\L	.
.	.	.	16d\	.	16d/	.	16d'/	.	.	.	.	.	.	.	.	.	.	.	.	.	.	.	.	.
!	!	!	!LO:TX:a:t=P:problem=błędne wyświetlanie tremola; powinny być pojedynczo przekreślone (jako szesnastki) 3 nuty - d,c,c	!	!	!	!	!	!	!	!	!	!	!	!	!	!	!	!	!	!	!	!	!
8r	8Cn'/	.	16cn\	.	16e/	.	16e'/	.	8Cn/	.	8r	.	8e 8cn/	.	8cn\	.	8r	.	8e/	.	8ee\	.	8ee'\	.
.	.	.	16c\	.	16e/	.	16e'/	.	.	.	.	.	.	.	.	.	.	.	.	.	.	.	.	.
8Re/	8AA'/J	.	16c\	.	16d/	.	16f#'/	.	8AA/J	.	8D\	.	8f#J 8c/	.	8A\J	.	8d 8D/	.	8f#J 8cn/	.	8ff#\J	.	8ff#'\J	.
.	.	.	16c\JJ	.	16d/JJ	.	16f#'/JJ	.	.	.	.	.	.	.	.	.	.	.	.	.	.	.	.	.
*	*	*	*Xtremolo	*	*Xtremolo	*	*Xtremolo	*	*	*	*	*	*	*	*	*	*	*	*	*	*	*	*	*
!	!	!	!	!	!	!	!	!	!	!	!	!	!	!	!	!	!	!	!	!	!	!	!LO:TX:a:t=P:problem=ta adnotacja dopisana ołówkiem	!
!	!	!	!	!	!	!	!LO:TX:a:t=[segno]	!	!	!	!	!	!	!	!	!	!	!	!	!	!	!	!LO:TX:a:i:t=d'al segno al fnie [!]\net Polonez da capo:color=grey	!
!	!	!	!	!	!	!	!	!	!	!	!	!	!	!	!	!	!	!	!	!	!	!	!LO:TX:a:t=[segno]	!
==	==	==	==	==	==	==	==	==	==	==	==	==	==	==	==	==	==	==	==	==	==	==	==	==
*-	*-	*-	*-	*-	*-	*-	*-	*-	*-	*-	*-	*-	*-	*-	*-	*-	*-	*-	*-	*-	*-	*-	*-	*-
!!!system-decoration: (s1,s2,s3,s4,s5,s6,s7,s8)({s9,s10}s11,s12,s13)
!!!RDF**kern: Z = marked note, color="grey"
!!!RDF**kern: | = vertical stroke
!!!RDF**kern: > = above
!!!RDF**kern: < = below
!!!EED: Antoni Szymański
!!!EST: 2021-06-28
!!!ENC: Krzysztof Stępień
!!!END: 2021-06-21
